JongmPark/GA-Algorithm/rfem/model/joint_and_body_positions1.csv
step,active_joint_pos,sde_joint_1_pos,sde_joint_2_pos,sde_joint_3_pos,sde_joint_4_pos,sde_joint_5_pos,rfe_1_x,rfe_1_y,rfe_1_z,rfe_2_x,rfe_2_y,rfe_2_z,rfe_3_x,rfe_3_y,rfe_3_z,rfe_4_x,rfe_4_y,rfe_4_z,rfe_5_x,rfe_5_y,rfe_5_z,rfe_6_x,rfe_6_y,rfe_6_z
0,-2.257762628769785e-05,3.477454772908481e-05,-1.5409646056900568e-05,4.0574601375180625e-06,-1.0611099489595924e-06,2.6074826046680223e-07,0.0,0.0,0.5,0.12,0.0,0.5,0.36,0.0,0.5,0.6,0.0,0.5,0.84,0.0,0.5,1.08,0.0,0.5
1,-3.491280517058795e-05,5.077063042132827e-05,-2.0034848568315517e-05,5.275306046926614e-06,-1.3796018990524907e-06,3.3901180076888874e-07,0.0,0.0,0.5,0.11999999996941503,-2.1571632987723447e-09,0.4999972906857045,0.35999999995156323,1.7352912723313128e-10,0.5000002179459225,0.5999999999503246,-4.403858647079012e-10,0.4999994468922592,0.839999999950239,-2.789665514310875e-10,0.49999964962872023,1.0799999999502332,-3.2031323391352896e-10,0.4999995976988742
2,-3.69624336583504e-05,4.7917916324333043e-05,-1.3841206649515852e-05,3.6444798192856976e-06,-9.531070317040045e-07,2.3420852904063952e-07,0.0,0.0,0.5,0.11999999992686577,-3.335719220550826e-09,0.4999958104647083,0.3599999998966893,-3.054698759294025e-10,0.499999616341562,0.5999999998945955,-1.1036513397127348e-09,0.4999986138562835,0.8399999998944507,-8.937820500507877e-10,0.499998877444055,1.0799999998944412,-9.475389313496438e-10,0.4999988099274757
3,-2.8827209456141003e-05,2.6380715410829113e-05,3.090911679208754e-06,-8.138571320201635e-07,2.1284050654795205e-07,-5.230164021055903e-08,0.0,0.0,0.5,0.11999999991802672,-3.5315495213580004e-09,0.49999556450936794,0.35999999990362397,-1.4380818708814345e-09,0.4999981938243743,0.5999999999026246,-1.989510775662682e-09,0.4999975012508378,0.8399999999025556,-1.8445211987347831e-09,0.49999768335218064,1.079999999902551,-1.8816594932287253e-09,0.4999976367079084
4,-1.0747827040593569e-05,-1.344822750970037e-05,3.056940536012654e-05,-8.049123377169033e-06,2.1050126284662775e-06,-5.172681485111755e-07,0.0,0.0,0.5,0.11999999995013953,-2.7542752922330006e-09,0.4999965407359622,0.3599999999494213,-3.221772370836364e-09,0.4999959535775775,0.5999999999493715,-3.0986315187968565e-09,0.4999961082377606,0.839999999949368,-3.1310094722699712e-09,0.4999960675722939,1.0799999999493677,-3.1227160351012473e-09,0.49999607798853263
5,1.6900517355824065e-05,-7.095669890893716e-05,6.829482547547534e-05,-1.7982471843273297e-05,4.702789148787688e-06,-1.1556239586853042e-06,0.0,0.0,0.5,0.11999999999306904,-1.026893515713702e-09,0.49999871026116394,0.3599999999228152,-5.650483275348642e-09,0.4999929032099131,0.5999999999179408,-4.432608704916164e-09,0.4999944328136226,0.8399999999176039,-4.752829708982922e-09,0.4999940306283339,1.0799999999175818,-4.670806834255485e-09,0.49999413364591594
6,2.2656694626520957e-05,-9.480909652988584e-05,9.115767214179713e-05,-2.400240765859621e-05,6.277127071694696e-06,-1.5424885429974535e-06,0.0,0.0,0.5,0.11999999998286234,1.6147479503404584e-09,0.5000020280614398,0.3599999996322138,-8.714771139521458e-09,0.49998905458198556,0.5999999996078851,-5.993928859309951e-09,0.49999247185544365,0.8399999996062031,-6.709331628905979e-09,0.49999157333702743,1.0799999996060927,-6.526085087436113e-09,0.49999180348764916
7,6.914166057954566e-06,-8.56474377333921e-05,9.947197300036478e-05,-2.6191617256650968e-05,6.849650780893908e-06,-1.6831757196696335e-06,0.0,0.0,0.5,0.11999999996920047,2.1647178271539883e-09,0.5000027188024931,0.3599999993444843,-1.1622782346609443e-08,0.4999854022315402,0.5999999993011403,-7.991092201663822e-09,0.4999899634949514,0.8399999992981438,-8.945988106591376e-09,0.4999887641823507,1.0799999992979474,-8.701396698782394e-09,0.4999890713797697
8,-2.9948273938684608e-05,-4.4089807169519704e-05,9.354004853739805e-05,-2.462970372078226e-05,6.441178157837926e-06,-1.5828011038073924e-06,0.0,0.0,0.5,0.11999999999713169,6.606090947263301e-10,0.500000829699664,0.35999999925326037,-1.4384420150180396e-08,0.49998193372047084,0.5999999992016493,-1.0421491116553281e-08,0.4999869110072108,0.8399999991980813,-1.1463481091073941e-08,0.49998560230780204,1.0799999991978473,-1.1196581008963302e-08,0.49998593752405956
9,-5.628642555739875e-05,-2.1770525145859364e-05,9.861750647411041e-05,-2.596663122038251e-05,6.7908123777207824e-06,-1.6687172794529927e-06,0.0,0.0,0.5,0.11999999994618603,-2.861386603477881e-09,0.499996406208267,0.3599999992883896,-1.7009218542109957e-08,0.49997863707444956,0.5999999992427505,-1.3282615235193776e-08,0.4999833175451487,0.8399999992395953,-1.426246709330563e-08,0.4999820868888288,1.0799999992393883,-1.4011483349213594e-08,0.49998240211477674
10,-6.311577848063672e-05,-3.334975372591001e-05,0.00012187499118197954,-3.209047725340999e-05,8.392324876491056e-06,-2.062259502016918e-06,0.0,0.0,0.5,0.1199999998099103,-5.377846627033005e-09,0.4999932456310776,0.3599999990787638,-2.029363865661577e-08,0.49997451196886583,0.5999999990280354,-1.636475120434582e-08,0.4999794465006864,0.8399999990245283,-1.73977904975342e-08,0.49997814904298976,1.079999999024298,-1.7133183081135533e-08,0.4999784813797472
11,-5.0805653252183886e-05,-7.822486669586726e-05,0.0001630177428408507,-4.29236291920149e-05,1.1225418258674232e-05,-2.7584400478739074e-06,0.0,0.0,0.5,0.11999999976098391,-6.030352309765639e-09,0.49999242610898803,0.359999998644312,-2.446381406662353e-08,0.49996927438863276,0.5999999985668351,-1.9608356575764902e-08,0.49997537265685327,0.8399999985614788,-2.0885022886488594e-08,0.4999737692129748,1.0799999985611275,-2.055801173478253e-08,0.4999741799264283
12,-1.969569297541035e-05,-0.00015584166168946227,0.00022177468419672005,-5.8394708123753594e-05,1.527142499683542e-05,-3.7526716503166298e-06,0.0,0.0,0.5,0.11999999984512713,-4.854190123061816e-09,0.4999939033235448,0.3599999978472621,-2.9510449178640306e-08,0.49996293600865893,0.5999999977086463,-2.3015878942651333e-08,0.49997109293956615,0.8399999976990632,-2.472352415276153e-08,0.4999689482027342,1.0799999976984345,-2.428612010266966e-08,0.4999694975654303
13,2.0943935305411448e-05,-0.00025107386349600055,0.00029074717774888435,-7.655560011324346e-05,2.002087208192268e-05,-4.919760568413845e-06,0.0,0.0,0.5,0.1199999999767248,-1.8818110234404403e-09,0.49999763651759227,0.3599999962791213,-3.542499508619791e-08,0.4999555075660426,0.5999999960225746,-2.6589569342028112e-08,0.4999666045216089,0.8399999960048384,-2.8912705580986877e-08,0.49996368675167174,1.0799999960036748,-2.8317646868405133e-08,0.499964434122572
14,3.946050954507413e-05,-0.000312273248808017,0.0003446728212664523,-9.075455621655412e-05,2.3734190384051806e-05,-5.8322398313216066e-06,0.0,0.0,0.5,0.1199999999736811,2.0010734519884254e-09,0.5000025132714399,0.35999999361850704,-4.197412787135013e-08,0.4999472821066682,0.5999999931775729,-3.03908636003903e-08,0.499961830241942,0.8399999931470892,-3.343650041122992e-08,0.4999580050390215,1.0799999931450892,-3.265637716063574e-08,0.4999589848438774
15,3.625615044134421e-05,-0.0003400959689687905,0.00038387256450272397,-0.00010107609206517153,2.6433483863886894e-05,-6.495541273949359e-06,0.0,0.0,0.5,0.1199999999065721,3.770226410958395e-09,0.5000047352596433,0.35999999097535734,-4.8361172508173235e-08,0.49993926022378593,0.5999999903556927,-3.462953132949385e-08,0.49995650663798535,0.8399999903128526,-3.824004961902927e-08,0.49995197196561186,1.079999990310042,-3.7315235117418486e-08,0.4999531334971247
16,1.1718187841394747e-05,-0.00033517403927393744,0.00040865554854917685,-0.0001076016117385495,2.8140042336051763e-05,-6.914896612011372e-06,0.0,0.0,0.5,0.11999999992112949,3.4640681921005995e-09,0.5000043507366729,0.35999998884289336,-5.459625106839761e-08,0.4999314292044622,0.5999999880742646,-3.930290712264521e-08,0.49995063705738746,0.839999988021126,-4.332405029248975e-08,0.4999455866559271,1.0799999880176396,-4.229405650712689e-08,0.4999468802885828
17,-3.37807243052888e-05,-0.00029811552553943245,0.0004193191950304848,-0.00011040942972320694,2.8874346932836214e-05,-7.095338745360069e-06,0.0,0.0,0.5,0.11999999999176106,1.1196059505563677e-09,0.5000014061820952,0.35999998743691863,-6.068911304272868e-08,0.4999237768037112,0.59999998656584,-4.440842373219791e-08,0.4999442247245131,0.8399999865056185,-4.868917383666256e-08,0.4999388482667085,1.0799999865016674,-4.759268314701182e-08,0.49994022541692335
18,-6.859349783808796e-05,-0.00028055944455792573,0.00044112137494272985,-0.00011615008094889718,3.0375645438404376e-05,-7.464255136944526e-06,0.0,0.0,0.5,0.11999999993153178,-3.2275553568424237e-09,0.49999594631436906,0.3599999867129174,-6.664913802975119e-08,0.4999162912411169,0.5999999857957847,-4.994361139927466e-08,0.4999372727412843,0.8399999857323793,-5.433606614008904e-08,0.49993175598674444,1.0799999857282192,-5.321096286247621e-08,0.4999331690732714
19,-8.375170892471542e-05,-0.00029713970543384646,0.00048121988232938356,-0.0001267082522257883,3.313682122627306e-05,-8.142762630003032e-06,0.0,0.0,0.5,0.11999999971769594,-6.55371712162203e-09,0.49999176878287493,0.35999998508876285,-7.327285651727702e-08,0.49990797210496346,0.5999999840737797,-5.569873915483085e-08,0.4999300445217473,0.8399999840036094,-6.031957606403405e-08,0.4999242409279709,1.0799999839990055,-5.9135973951907156e-08,0.4999257274867884
20,-7.962692961212583e-05,-0.0003472500059268238,0.0005393181544351627,-0.0001420058524000943,3.713745104852181e-05,-9.125842475170869e-06,0.0,0.0,0.5,0.11999999957913905,-8.001997650409815e-09,0.4999899497981264,0.3599999821697469,-8.078599625189981e-08,0.4998985358898661,0.5999999809618506,-6.161437158008899e-08,0.49992261471450644,0.8399999808783434,-6.665524715287066e-08,0.49991628356829276,1.0799999808728644,-6.536405453781113e-08,0.49991790525665186
21,-5.657584401569679e-05,-0.00043030833202806435,0.0006151314987994598,-0.00016196790860175753,4.2357925824939114e-05,-1.0408675802860104e-05,0.0,0.0,0.5,0.11999999961957314,-7.607898536254972e-09,0.49999044477148535,0.3599999777527033,-8.917920446671595e-08,0.4998879943425411,0.5999999762355401,-6.769297140652336e-08,0.49991498022646563,0.8399999761306521,-7.334243530673269e-08,0.4999078847166748,1.0799999761237706,-7.189535633849549e-08,0.4999097021923094
22,-1.4932731785801523e-05,-0.0005457692213077542,0.0007083930884519694,-0.00018652414249792603,4.8779862440751154e-05,-1.1986744755122063e-05,0.0,0.0,0.5,0.11999999980795044,-5.405498908425823e-09,0.4999932109008737,0.3599999713612069,-9.844350215324835e-08,0.49987635874027847,0.599999969387522,-7.393690313754186e-08,0.4999071380878994,0.8399999692510727,-8.038052207831177e-08,0.49989904514986305,1.0799999692421203,-7.873002502734047e-08,0.4999011181108009
23,3.6042239889877383e-05,-0.0006785227102420921,0.0008117122530827601,-0.00021372852942240842,5.589433273400433e-05,-1.3734989260737109e-05,0.0,0.0,0.5,0.11999999998662082,-1.426737272989319e-09,0.49999820807275375,0.3599999622602202,-1.0857047294098164e-07,0.49986363965371644,0.5999999596426997,-8.034838337689583e-08,0.49989908551483836,0.8399999594617394,-8.776892765387284e-08,0.49988976559608134,1.0799999594498666,-8.586819717653945e-08,0.4998921528405969
24,6.471456268374872e-05,-0.0007769503388782719,0.0008998412383146719,-0.0002369332440689187,6.196280607647988e-05,-1.5226199287597874e-05,0.0,0.0,0.5,0.11999999992205745,3.44363026011008e-09,0.500004325067415,0.35999995038832067,-1.1932704349727e-07,0.4998501298140138,0.5999999469515932,-8.698878221783548e-08,0.49989074542880135,0.839999946713998,-9.549160245517985e-08,0.4998800662129838,1.0799999466984096,-9.331365389736258e-08,0.4998828016327668
25,7.303632619817977e-05,-0.0008442373775650961,0.0009743380711061851,-0.00025654854981040223,6.709257937587556e-05,-1.648674171561156e-05,0.0,0.0,0.5,0.11999999974872151,6.1831070128035036e-09,0.5000077657450551,0.35999993887514803,-1.299170061819219e-07,0.4998368292274022,0.5999999346516509,-9.406774461311134e-08,0.49988185452377526,0.8399999343596634,-1.0349372052748114e-07,0.49987001585986485,1.0799999343405062,-1.0107931168028249e-07,0.49987304826469425
26,6.138687915551123e-05,-0.0008810028302094873,0.0010355055523632818,-0.00027265419925400625,7.130451384942375e-05,-1.752174340477103e-05,0.0,0.0,0.5,0.11999999967994171,6.978204006815767e-09,0.500008764356358,0.35999992830981786,-1.4038949692162518e-07,0.4998236761810441,0.5999999233580601,-1.0157233208391917e-07,0.4998724290499931,0.8399999230157252,-1.117786656362415e-07,0.4998596102868452,1.0799999229932649,-1.0916437332099495e-07,0.4998628937376375
27,3.0136330986934486e-05,-0.000887850619785782,0.0010836390965338377,-0.0002853279928527785,7.461895886348186e-05,-1.8336205251113034e-05,0.0,0.0,0.5,0.11999999977389904,5.865165849639983e-09,0.5000073664231591,0.35999991916146673,-1.5075406669226695e-07,0.49981065867928026,0.5999999135684684,-1.0950002917577172e-07,0.4998624721667687,0.8399999131818021,-1.2034709571324916e-07,0.49984884866758755,1.079999913156433,-1.1756868379706096e-07,0.4998523382462985
28,-2.194845059089399e-05,-0.0008627686353197919,0.0011177545519889878,-0.0002943108132921183,7.69681528843821e-05,-1.891347652879819e-05,0.0,0.0,0.5,0.11999999994550808,2.8793543808358036e-09,0.5000036163585716,0.35999991166465733,-1.6102003294619436e-07,0.4997977650197484,0.5999999055396151,-1.1784838210799782e-07,0.49985198695595684,0.8399999051161664,-1.2919965252665994e-07,0.49983773019605593,1.079999905088384,-1.2629209189383188e-07,0.49984138198059724
29,-6.34298165455345e-05,-0.0008570540465206559,0.001162942373807312,-0.00030620895754764283,8.007974563259343e-05,-1.967809061483212e-05,0.0,0.0,0.5,0.11999999997109595,-2.0970491528425665e-09,0.49999736618676416,0.3599999060441834,-1.7115636073835347e-07,0.4997850341811479,0.5999998995274082,-1.2662556213716538e-07,0.4998409631547727,0.8399998990768774,-1.3833419917872954e-07,0.4998262575561118,1.0799998990473183,-1.3533510101458766e-07,0.49983002430827866
30,-8.5128947090928e-05,-0.0008856840338201072,0.0012265281853175891,-0.0003229512480452356,8.445815266907619e-05,-2.0753996739235235e-05,0.0,0.0,0.5,0.11999999975859953,-6.0603568540013784e-09,0.4999923884244323,0.35999989808374167,-1.819542883934718e-07,0.49977147239851666,0.5999998910294062,-1.356232357751778e-07,0.49982966242207993,0.8399998905417119,-1.4780521826505793e-07,0.4998143623197064,1.0799998905097143,-1.4468487570336692e-07,0.49981828135018225
31,-8.742404265460433e-05,-0.0009480414698185965,0.0013082101079973409,-0.0003444581778138395,9.008257748661419e-05,-2.213608400913915e-05,0.0,0.0,0.5,0.11999999956518376,-8.133584894242967e-09,0.4999897845295994,0.35999988646785136,-1.936448319074768e-07,0.4997567895246318,0.5999998786210196,-1.4478057656989324e-07,0.49981816115356764,0.8399998780785374,-1.5762861681529356e-07,0.4998020245082213,1.0799998780429454,-1.5433766841745026e-07,0.49980615781307824
32,-7.067582062510094e-05,-0.0010435377426803497,0.001407700186540758,-0.0003706538877239693,9.693317422187391e-05,-2.38194746644353e-05,0.0,0.0,0.5,0.1199999995414222,-8.35286817212397e-09,0.4999895091182201,0.35999987087877433,-2.0621846956229965e-07,0.49974099751840567,0.5999998619520206,-1.5410009213310252e-07,0.4998064561997715,0.83999986133488,-1.6780373888924498e-07,0.49978924494549215,1.0799998612943895,-1.6429363363988354e-07,0.4997936535029418
33,-3.5231409603344876e-05,-0.0011716064000571412,0.00152472127622319,-0.00040146534410922033,0.00010499083207296646,-2.57994710300854e-05,0.0,0.0,0.5,0.11999999970029572,-6.752671175719337e-09,0.4999915189042203,0.35999985072368734,-2.1966611725833671e-07,0.4997241077891187,0.5999998403875597,-1.63584175319745e-07,0.4997945445553577,0.8399998396729853,-1.7832995847244582e-07,0.49977602441776914,1.0799998396261024,-1.7455291880487327e-07,0.49978076823460116
34,9.902823381213323e-06,-0.00131755162313243,0.001652085305124605,-0.00043499988973154467,0.00011376058370326169,-2.795444423481652e-05,0.0,0.0,0.5,0.11999999992552488,-3.366160055209708e-09,0.49999577223218855,0.3599998251506462,-2.3397903013064137e-07,0.49970613131998565,0.5999998130246584,-1.7323513020711046e-07,0.4997824233264936,0.8399998121863467,-1.8920667267075632e-07,0.49976236368226407,1.0799998121313452,-1.8511566590312318e-07,0.4997675018297214
35,3.2829873382249606e-05,-0.0014293268090778118,0.0017643354685168257,-0.0004645549266620718,0.00012148962469382328,-2.985368382548685e-05,0.0,0.0,0.5,0.11999999999411608,9.46158240084082e-10,0.5000011883384291,0.3599997948006994,-2.489305257741843e-07,0.49968735281540533,0.5999997805643188,-1.8311264358819888e-07,0.49977001754885825,0.8399997795801117,-2.004182722853928e-07,0.4997482823435314,1.0799997795155387,-1.9598555235071617e-07,0.49975384966960906
36,3.3954802565429344e-05,-0.0015075929494793893,0.0018617951683127382,-0.0004902156795663315,0.00012820025607610758,-3.150267170297345e-05,0.0,0.0,0.5,0.11999999993533195,3.136706979485498e-09,0.5000039395835565,0.35999976591092697,-2.637178258437744e-07,0.4996687805341628,0.5999997496743048,-1.9342808369475695e-07,0.49975706175206663,0.8399997485518175,-2.11909482245451e-07,0.4997338498249385,1.0799997484781718,-2.071756006844785e-07,0.4997397953984581
37,1.3667932031905301e-05,-0.0015529869727570578,0.0019447760167096658,-0.0005120642543849032,0.00013391396064163687,-3.290668833088279e-05,0.0,0.0,0.5,0.11999999993082427,3.244187540798522e-09,0.5000040745750155,0.3599997393377449,-2.783511347848788e-07,0.49965040165986624,0.5999997212578403,-2.0417876173752326e-07,0.4997435593131345,0.8399997200079238,-2.2368100599933545e-07,0.4997190652429807,1.0799997199259177,-2.1868564511776814e-07,0.49972533922448936
38,-2.7655125505728865e-05,-0.0015661217954603928,0.002013577857133089,-0.0005301796407794632,0.00013865140302082531,-3.4070812675991786e-05,0.0,0.0,0.5,0.11999999998879128,1.3058928770999897e-09,0.5000016401513239,0.3599997156484743,-2.9284028408379765e-07,0.49963220384454665,0.5999996959210314,-2.1536208750191e-07,0.49972951348527256,0.839999694557218,-2.3573352115047804e-07,0.4997039277466148,1.0799996944677395,-2.3051552595564102e-07,0.4997104813482746
39,-5.843018799917528e-05,-0.00159853343462725,0.002093407448979564,-0.0005511983707898482,0.0001441480680215156,-3.542149329700094e-05,0.0,0.0,0.5,0.11999999995411165,-2.6422893620961936e-09,0.4999966813859916,0.35999969513919133,-3.0719473268054714e-07,0.49961417520813817,0.5999996739912525,-2.269755693168792e-07,0.49971492739792356,0.8399996725292376,-2.4806767944917625e-07,0.49968843651726713,1.079999672433316,-2.426650895946308e-07,0.49969522196273347
40,-6.961681070006894e-05,-0.001664973182474901,0.00219147972085987,-0.0005770199650476895,0.0001509006794481742,-3.708078526805933e-05,0.0,0.0,0.5,0.11999999979515477,-5.582670889537407e-09,0.49999298837966655,0.35999967033181646,-3.2220935549418683e-07,0.4995953174182553,0.5999996474738312,-2.388099261318134e-07,0.4997000639000532,0.8399996458935984,-2.6073820928696566e-07,0.49967252281817853,1.0799996457899208,-2.551214425385881e-07,0.49967957726160184
41,-6.158817903775564e-05,-0.0017648320619756933,0.002307496711136995,-0.0006075658950966828,0.0001588886869591667,-3.904363681570658e-05,0.0,0.0,0.5,0.11999999970920998,-6.651488823387029e-09,0.4999916459853707,0.3599996386530072,-3.381116651896823e-07,0.49957534472772497,0.5999996136032208,-2.508052579188076e-07,0.4996849982237976,0.839999611871468,-2.7376077460671846e-07,0.4996561669760385,1.0799996117578496,-2.678808944543026e-07,0.499663551879797
42,-3.4694530345089415e-05,-0.0018975385189647627,0.0024411787171887216,-0.000642762406328158,0.00016809278246480714,-4.1305300553163715e-05,0.0,0.0,0.5,0.11999999977241377,-5.884398904155855e-09,0.4999926094208627,0.3599995994752174,-3.548922593166941e-07,0.4995542689456636,0.5999995717030696,-2.6296404223230823e-07,0.499669727257443,0.8399995697831207,-2.871347270557226e-07,0.4996393698051528,1.0799995696571554,-2.8094359801790866e-07,0.4996471456255634
43,1.9886001527330338e-06,-0.0020482839313894826,0.0025852826135113194,-0.0006807024351562289,0.00017801424773949406,-4.374322824700664e-05,0.0,0.0,0.5,0.11999999992777738,-3.3148643070902018e-09,0.49999583665767905,0.35999955190497,-3.725423085249972e-07,0.4995321011613961,0.5999995208218876,-2.7528860660574936e-07,0.49965424807769704,0.8399995186730573,-3.0085945736118263e-07,0.49962213207074485,1.0799995185320757,-2.943096967063717e-07,0.4996303583186995
44,1.6612984200271977e-05,-0.0021651016417184392,0.002714391432724672,-0.0007146944200165031,0.00018690326596825183,-4.5927457876800124e-05,0.0,0.0,0.5,0.11999999999976274,1.8999939192494207e-10,0.5000002386319427,0.35999949752098825,-3.9083340143072866e-07,0.4995091282508528,0.5999994626601143,-2.8783909079630906e-07,0.49963848515133336,0.8399994602501322,-3.14919238353379e-07,0.4996044735255362,1.0799994600920173,-3.0798289578156927e-07,0.49961318530553883
45,9.578077488809943e-06,-0.0022486435206376123,0.002828824173231445,-0.0007448224697166885,0.00019478185439351768,-4.786340273843752e-05,0.0,0.0,0.5,0.1199999999834405,1.587275798821874e-09,0.500001993557472,0.35999944606323225,-4.089640598976612e-07,0.4994863568398058,0.5999994076337192,-3.0082650666330235e-07,0.49962217345555654,0.8399994049770448,-3.292588910159958e-07,0.4995864634722529,1.0799994048027455,-3.219761953633863e-07,0.4995956102584294
46,-1.8731329112322817e-05,-0.0022995374932363055,0.0029288880874620607,-0.000771167575789889,0.0002016712105594732,-4.9556274073616915e-05,0.0,0.0,0.5,0.11999999999449562,9.151306240000543e-10,0.5000011493689344,0.3599993983850599,-4.2694435296838396e-07,0.49946377428192446,0.5999993566472179,-3.142481998996138e-07,0.49960531632407473,0.8399993537618463,-3.4387910994610216e-07,0.4995681010385078,1.0799993535725427,-3.3628943170902937e-07,0.4995776333830261
47,-3.678062218951032e-05,-0.002369238289583055,0.003039749338992509,-0.0008003549579939442,0.0002093037454085474,-5.143174882421737e-05,0.0,0.0,0.5,0.11999999997894825,-1.7896715617715034e-09,0.4999977522412191,0.3599993550547972,-4.447839772984526e-07,0.49944136839858133,0.5999993103120922,-3.2810161488365056e-07,0.4995879169666502,0.8399993072190011,-3.587805638217899e-07,0.49954938538446675,1.07999930701607,-3.5092244718727317e-07,0.49955925487730757
48,-4.444728582195539e-05,-0.002457945767151928,0.0031615055684316535,-0.0008324102386979113,0.0002176861436477371,-5.3491467369853234e-05,0.0,0.0,0.5,0.11999999991883115,-3.514178473461169e-09,0.49999558632673724,0.3599993052479259,-4.6327647760470766e-07,0.4994181425280743,0.599999257054217,-3.421778368436957e-07,0.499570237772217,0.8399992537225689,-3.74017882050231e-07,0.49953024789769185,1.079999253503987,-3.6586237143662134e-07,0.4995404909059543
49,-4.175533722300329e-05,-0.0025656206750883748,0.003294137445848775,-0.0008673282285415913,0.00022681702977030054,-5.573508911606034e-05,0.0,0.0,0.5,0.11999999988146634,-4.2466844149152446e-09,0.49999466632739376,0.3599992484453395,-4.824249260859968e-07,0.4993940928118397,0.5999991963138244,-3.5647605908253836e-07,0.49955227975395566,0.8399991927099723,-3.895912751580979e-07,0.49951068831376944,1.0799991924735324,-3.8110915483683653e-07,0.499521341531287
50,-2.8872429733671103e-05,-0.0026919893811543777,0.0034375109825342753,-0.0009050735349116774,0.00023668712714657673,-5.816033158259247e-05,0.0,0.0,0.5,0.11999999989538951,-3.9894840945206595e-09,0.4999949893611229,0.3599991840866914,-5.022287051430726e-07,0.499369220025558,0.5999991274897417,-3.709964467794867e-07,0.49953404270440704,0.8399991235772177,-4.055006994509764e-07,0.4994907066875777,1.0799991233205277,-3.9666280766390773e-07,0.49950180674039923
51,-6.105210320734051e-06,-0.0028365514472827925,0.003591381237041666,-0.0009455815382579633,0.0002472795134441268,-6.076303318139396e-05,0.0,0.0,0.5,0.11999999994998296,-2.7585958315926314e-09,0.49999653530953064,0.3599991115798517,-5.22683580266409e-07,0.4993435294876113,0.5999990499495301,-3.8574011780709377e-07,0.4995155252195666,0.8399990456890812,-4.217458620319853e-07,0.4994703033869844,1.0799990454095658,-4.125233989099833e-07,0.4994818864466399
52,2.6106983091163486e-05,-0.0029985899145799195,0.003755397347591963,-0.0009887597184755988,0.0002585699677489074,-6.353723854974272e-05,0.0,0.0,0.5,0.1199999999977636,-5.833179922632867e-10,0.4999992673749937,0.35999903031479186,-5.437818169493281e-07,0.4993170309122424,0.5999989630441755,-4.007091119353433e-07,0.49949672473756107,0.8399989583938562,-4.383262288595538e-07,0.4994494790827249,1.0799989580887641,-4.2869105438700456e-07,0.49946158049199385
53,3.6348801147568545e-05,-0.003126845135044131,0.00390448955430088,-0.0010280089725754626,0.00026883304509752105,-6.60590016577353e-05,0.0,0.0,0.5,0.11999999995910553,2.4943731925886686e-09,0.5000031328369776,0.3599989396813128,-5.655123394983446e-07,0.49928973821009737,0.5999988661267186,-4.159063489848855e-07,0.49947763759120817,0.839998861042044,-4.552410357004857e-07,0.49942823473464687,1.0799988607084572,-4.451659541486994e-07,0.4994408886503205
54,2.5016813353340163e-05,-0.0032219643093664156,0.00403897465491028,-0.0010634128930313057,0.0002780906393183597,-6.83337071105028e-05,0.0,0.0,0.5,0.1199999999207259,3.4729204381429096e-09,0.5000043618547542,0.35999885378152735,-5.870847023714858e-07,0.4992626441504341,0.5999987742713362,-4.315399090994123e-07,0.49945800243983496,0.8399987687750071,-4.7243587544898795e-07,0.4994066386759867,1.0799987684144148,-4.6196091666609213e-07,0.49941979482211235
55,-7.507191022814938e-06,-0.003284570495922451,0.004159157588090265,-0.001095051912924593,0.00028636381127476355,-7.036653388202128e-05,0.0,0.0,0.5,0.11999999996244955,2.3902136978159083e-09,0.5000030020166505,0.3599987735066991,-6.085089102322532e-07,0.49923573616777905,0.5999986884255358,-4.4760715323513303e-07,0.499437822597979,0.8399986825441387,-4.899114389558298e-07,0.4993846900390622,1.0799986821582852,-4.79075779023257e-07,0.4993982992119855
56,-2.9875386677504382e-05,-0.0033658128360820132,0.0042900533874940805,-0.0011295102227846046,0.0002953740130428928,-7.258043372600505e-05,0.0,0.0,0.5,0.11999999999661853,-7.17269244612208e-10,0.4999990991373628,0.3599986994647335,-6.297945908022179e-07,0.49920900217008357,0.5999986092454326,-4.6410554255564956e-07,0.4994171012543216,0.8399986030088841,-5.076683907022375e-07,0.4993623879893108,1.079998602599732,-4.965103845279775e-07,0.49937640201673966
57,-4.19034564083417e-05,-0.0034659919891448913,0.004431808912608418,-0.0011668263395991378,0.0003051312895283527,-7.497787103718945e-05,0.0,0.0,0.5,0.11999999994644768,-2.854422641779115e-09,0.49999641495473557,0.35999861626395646,-6.517304238950887e-07,0.49918145160577704,0.5999985202772771,-4.80827475335151e-07,0.49939609914866095,0.8399985136420933,-5.257610106872765e-07,0.49933966435313715,1.0799985132067902,-5.142519450742653e-07,0.4993541192977449
58,-4.3554108238574004e-05,-0.0035851687018905736,0.004584453656329318,-0.0012070078622798638,0.0003156375972412297,-7.755932225916068e-05,0.0,0.0,0.5,0.11999999989464605,-4.003636037073875e-09,0.4999949715868263,0.3599985232565054,-6.743210286648029e-07,0.4991530786733792,0.5999984208225813,-4.97771739240003e-07,0.4993748178036413,0.8399984137417816,-5.441896152084275e-07,0.4993165187332831,1.0799984132772458,-5.323003861245762e-07,0.4993314511486166
59,-3.493501299692449e-05,-0.0037231671740043134,0.004747901391383142,-0.0012500319054157376,0.0003268869177807333,-8.032330377811547e-05,0.0,0.0,0.5,0.11999999988618239,-4.161346395943724e-09,0.49999477350866967,0.3599984197724083,-6.975673218112038e-07,0.4991238822215503,0.5999983101618426,-5.14938097200248e-07,0.499353257517014,0.839998302585026,-5.629542654500155e-07,0.4992929510529048,1.0799983020879518,-5.506556932516163e-07,0.4993083975874768
60,-1.629487310577904e-05,-0.0038795814734706164,0.004921953309875459,-0.001295845927158296,0.0003388654745734811,-8.326642521464129e-05,0.0,0.0,0.5,0.11999999992677271,-3.33784105157429e-09,0.49999580779977004,0.35999830512892167,-7.214665695225854e-07,0.4990938656838532,0.5999981875646355,-5.323272737274041e-07,0.4993314173788199,0.8399981794381086,-5.820547710621364e-07,0.4992689615510733,1.0799981789049746,-5.693179112924149e-07,0.49928495855801014
61,1.1982173317972348e-05,-0.004053784668973062,0.00510630249327106,-0.0013443689085203337,0.00035155204171565327,-8.638346537676066e-05,0.0,0.0,0.5,0.11999999998406863,-1.5568820998037197e-09,0.4999980446158472,0.35999817864407135,-7.460124865831159e-07,0.49906303695427723,0.5999980523040103,-5.499409287908912e-07,0.4993092953042011,0.8399980435709751,-6.014906970048161e-07,0.4992445507741822,1.0799980429980556,-5.882871427444181e-07,0.4992611339314841
62,1.8354482600905935e-05,-0.004194312138136952,0.005275781200057129,-0.0013889776437303592,0.0003632151851745894,-8.924905081734985e-05,0.0,0.0,0.5,0.11999999999138565,1.1448282557816963e-09,0.5000014378603423,0.3599980396539647,-7.711953775273413e-07,0.49903140820995506,0.5999979036747481,-5.677816205934009e-07,0.49928688808015365,0.8399978942755554,-6.212613732961712e-07,0.4992197195637038,1.079997893658939,-6.075635454698979e-07,0.49923692350963067
63,3.2159994549671762e-06,-0.004301806847319963,0.005430704260238796,-0.0014297552854441486,0.00037387669817239667,-9.186854344911039e-05,0.0,0.0,0.5,0.11999999997978678,1.7536660289814188e-09,0.5000022025372138,0.35999790734814685,-7.962218426378349e-07,0.4989999759304756,0.5999977621947419,-5.860581631584358e-07,0.4992639334442799,0.8399977521615307,-6.41312209258574e-07,0.4991945364834334,1.0799977515033254,-6.271599813545371e-07,0.49921231113841485
64,-3.305399336375731e-05,-0.004376887803940936,0.005571374715029408,-0.0014667818312097752,0.00038355753949066647,-9.424709882577256e-05,0.0,0.0,0.5,0.11999999999937942,3.072703881844602e-10,0.5000003859198122,0.3599977826568005,-8.211018307520875e-07,0.4989687276204801,0.5999976288551234,-6.047679300461306e-07,0.49924043469528673,0.8399976182242413,-6.616438927499866e-07,0.49916900066944697,1.0799976175268315,-6.470762881172921e-07,0.4991872970216544
65,-5.8765977132607246e-05,-0.004471260401639199,0.0057230770007107665,-0.0015067104139728758,0.000393996821866665,-9.681195646338425e-05,0.0,0.0,0.5,0.11999999993444603,-3.158120364234136e-09,0.49999603352205435,0.35999766622782947,-8.458449148442667e-07,0.4989376512566816,0.599997504356677,-6.239083951125397e-07,0.4992163950059148,0.839997493168122,-6.822570851756654e-07,0.4991431112910459,1.0799974924341313,-6.673123097277415e-07,0.4991618813553186
66,-6.498471774879443e-05,-0.004599503375753151,0.005892939809498868,-0.0015514164760787356,0.00040568471818489395,-9.968352588895586e-05,0.0,0.0,0.5,0.11999999979279358,-5.614753624203357e-09,0.4999929480849834,0.35999753726032563,-8.712481112662281e-07,0.49890574581713615,0.5999973664559715,-6.432698134490143e-07,0.49919207780771696,0.8399973546500756,-7.032066174350925e-07,0.4991167994827241,1.079997353875591,-6.878551283185249e-07,0.49913608036375173
67,-5.207799147843538e-05,-0.004761016397476522,0.006080669029346193,-0.0016008222137542114,0.000418600814396534,-0.00010285678132543016,0.0,0.0,0.5,0.11999999974661918,-6.20891878693353e-09,0.4999922018363474,0.35999738885745214,-8.97536103325579e-07,0.4988727291082355,0.5999972077662408,-6.627930655932575e-07,0.4991675573524693,0.8399971952494926,-7.245079426414359e-07,0.49909004583596595,1.0799971944283817,-7.087011031416308e-07,0.4991098986195953
68,-2.0385784020202617e-05,-0.004955244425039671,0.006285992576440342,-0.0016548555319453127,0.0004327261726423655,-0.00010632705738357372,0.0,0.0,0.5,0.11999999983727298,-4.975754776800277e-09,0.4999937506430063,0.3599972199373279,-9.246995867585033e-07,0.49883861281577735,0.5999970271278976,-6.824806106928698e-07,0.49914283055157677,0.8399970138014244,-7.461604158468324e-07,0.499062851160801,1.0799970129272034,-7.298503860470838e-07,0.49908333593213117
69,2.083516501974216e-05,-0.005167083831953487,0.006501524403575448,-0.0017115727530894087,0.00044755268848765424,-0.00010996952599334812,0.0,0.0,0.5,0.1199999999750652,-1.947745283113991e-09,0.49999755370669313,0.35999702915367693,-9.52729944657635e-07,0.49880340776226667,0.5999968231077624,-7.023347292964178e-07,0.49911789454075706,0.8399968088666977,-7.681634384061293e-07,0.4990352162091033,1.07999680793249,-7.513031180065692e-07,0.4990563921243023
70,3.992320961654652e-05,-0.005344875684842198,0.006702004821927585,-0.0017643287671446136,0.00046134362668115756,-0.00011335757121951297,0.0,0.0,0.5,0.11999999997395375,1.990681072150879e-09,0.5000025002190097,0.35999682191592663,-9.813943399491552e-07,0.4987674063821296,0.5999966015032817,-7.224167001554228e-07,0.49909267235625093,0.8399965862695742,-7.905009904480781e-07,0.4990071611012172,1.0799965852702624,-7.730630734796956e-07,0.4990290624555343
71,3.728096331235257e-05,-0.00548927718588456,0.0068877558141280685,-0.0018132087520152025,0.0004741213361346805,-0.00011649669519125155,0.0,0.0,0.5,0.11999999990436824,3.814434761256361e-09,0.5000047907836341,0.3599966228097966,-1.009896657892691e-06,0.49873160856492066,0.5999963885992036,-7.429359924711225e-07,0.4990669009127836,0.8399963724121675,-8.1311832136986e-07,0.49897875460179875,1.0799963713503309,-7.951431523198722e-07,0.49900133072410674
72,1.329622552177862e-05,-0.0056009213204319,0.007059087428655928,-0.0018582946781996006,0.0004859073150824134,-0.00011939218932861996,0.0,0.0,0.5,0.11999999991660779,3.5619832113312415e-09,0.5000044737141784,0.3599964330139057,-1.03824708421283e-06,0.4986960015177597,0.5999961856452756,-7.638899136692079e-07,0.4990405835921239,0.8399961685491315,-8.360161369006404e-07,0.4989499958244782,1.0799961674276704,-8.175431879364651e-07,0.49897319713925004
73,-3.165791401579694e-05,-0.005680417025582293,0.007216297858388228,-0.0018996653265474952,0.0004967222151911931,-0.0001220491352775488,0.0,0.0,0.5,0.11999999998939265,1.2703784420862618e-09,0.5000015955465569,0.3599962534126363,-1.0664554230648425e-06,0.49866057292700416,0.5999959935885153,-7.852758733419179e-07,0.4990137236477247,0.839995975631804,-8.591951157689612e-07,0.49892088391679856,1.0799959744539018,-8.40263020125969e-07,0.4989446619021736
74,-6.596598360403689e-05,-0.005779346889384827,0.007384607378717766,-0.001943953885773776,0.0005082993685479282,-0.00012489327249370064,0.0,0.0,0.5,0.1199999999398666,-3.024732952647675e-09,0.49999620105152287,0.3599960846144984,-1.0945310992748276e-06,0.49862531095543483,0.5999958130921588,-8.070913827313255e-07,0.498986324205371,0.8399957943271952,-8.826559098223272e-07,0.49889141806006504,1.0799957930962831,-8.633024950422859e-07,0.498915725206103
75,-8.06286362605341e-05,-0.005912393603111096,0.007571194163238308,-0.0019930478061052407,0.0005211318993245542,-0.000128045709100179,0.0,0.0,0.5,0.11999999973890935,-6.302673137275488e-09,0.49999208408448237,0.3599958996286737,-1.1232688621341393e-06,0.49858921742844886,0.5999956152974207,-8.291273735253181e-07,0.49895864784683586,0.8399955956475154,-9.064531586422467e-07,0.4988615296290591,1.0799955943585655,-8.866487402100271e-07,0.49888640321837113
76,-7.601833352584303e-05,-0.006078949118799526,0.007775760163281954,-0.0020468681238378517,0.0005351990673682229,-0.00013150133598187588,0.0,0.0,0.5,0.1199999996099414,-7.703605887585401e-09,0.49999032456672604,0.35999568966497386,-1.1528948738044722e-06,0.4985520082950546,0.5999953907898414,-8.513243635075692e-07,0.49893076927950153,0.8399953701352021,-9.306024053804271e-07,0.4988311991021813,1.0799953687803612,-9.102980937579913e-07,0.4988567005381508
77,-5.249119100838914e-05,-0.006278431986714883,0.007998020187478198,-0.0021053391470866067,0.0005504809673706175,-0.00013525524624389206,0.0,0.0,0.5,0.1199999996532728,-7.263117782277124e-09,0.49999087780287715,0.3599954536327038,-1.183399695963323e-06,0.49851369540942186,0.5999951383964914,-8.73684850305851e-07,0.4989026853664427,0.8399951166116609,-9.551029944221365e-07,0.4988004273028579,1.0799951151827043,-9.342507100377705e-07,0.4988266169715815
78,-1.0377145494782067e-05,-0.0065103033951916765,0.00823770973752004,-0.002168390511699503,0.0005669590651904972,-0.0001393028668141825,0.0,0.0,0.5,0.11999999983468053,-5.015233632928899e-09,0.4999937010590785,0.35999519018015125,-1.2147742866574281e-06,0.4984742901278962,0.5999948566747357,-8.962112301473806e-07,0.49887439309808834,0.8399948336279957,-9.799542961721607e-07,0.49876921502183363,1.079994832116289,-9.585067373114555e-07,0.4987961523324481
79,4.099446878719302e-05,-0.006759341873224933,0.00848738637735022,-0.002234064622777375,0.0005841217893905997,-0.00014351854200219817,0.0,0.0,0.5,0.11999999999353889,-9.914770101878778e-10,0.49999875474293537,0.359994897698652,-1.2470102468295226e-06,0.498433802999373,0.5999945439160274,-9.189057331418408e-07,0.4988458896735092,0.8399945194687832,-1.0051557239538926e-06,0.4987375629959558,1.0799945178652424,-9.830663137820488e-07,0.4987653064471781
80,7.005904182086532e-05,-0.006974049578383396,0.008721874903023358,-0.002295742856147538,0.0006002401166093799,-0.0001474776615524195,0.0,0.0,0.5,0.11999999989916722,3.916787459243775e-09,0.5000049193346938,0.35999458357651837,-1.2798730355104698e-06,0.49839252859830446,0.5999942080367497,-9.418300625472127e-07,0.4988170975957799,0.8399941820868877,-1.0306911514875703e-06,0.4987054914792105,1.079994180384821,-1.0079332390877824e-06,0.49873407454356916
81,7.876711772012962e-05,-0.007157609264502266,0.008942732134013604,-0.0023538351794200256,0.0006154212696869759,-0.00015120657459412795,0.0,0.0,0.5,0.11999999970550383,6.693741482233521e-09,0.5000084070823468,0.3599942799179839,-1.312569541500134e-06,0.4983514630419128,0.5999938833536647,-9.65192786546394e-07,0.49878775491126953,0.8399938559518169,-1.0565060843821734e-06,0.4986730689144614,1.0799938541545453,-1.03312035285842e-06,0.49870244049553963
82,6.749793443105596e-05,-0.007310640033805301,0.00915026150999631,-0.002408421959300986,0.0006296863524341013,-0.0001547104791428641,0.0,0.0,0.5,0.11999999962774448,7.525748418791168e-09,0.5000094520511207,0.35999398645211794,-1.3451488642345378e-06,0.49831054466319186,0.5999935695619325,-9.889809753289799e-07,0.498757877859324,0.8399935407563781,-1.082603903739573e-06,0.49864029105517454,1.0799935388670687,-1.0586268580470668e-06,0.49867040530414986
83,3.662240498097839e-05,-0.0074337473515009,0.009344759693679823,-0.0024595817000475596,0.000643055967347039,-0.0001579944480211081,0.0,0.0,0.5,0.11999999972664177,6.449042292757138e-09,0.5000080997495582,0.35999370418126897,-1.3776206103469438e-06,0.4982697613965781,0.5999932677288677,-1.013192086898319e-06,0.4987274696325923,0.839993237572359,-1.1089852761919748e-06,0.49860715706408393,1.079993235594471,-1.0844525972156845e-06,0.49863796916713404
84,-1.509017440053761e-05,-0.007524923674762167,0.009525246038676626,-0.0025070571630190887,0.0006554630209575611,-0.00016104201956460777,0.0,0.0,0.5,0.11999999991952798,3.4990617224384274e-09,0.5000043946872037,0.359993433854571,-1.4099941665007607e-06,0.4982291014527829,0.5999929786609819,-1.0378236392146902e-06,0.4986965333484227,0.8399929472102207,-1.1356508523568383e-06,0.4985736661240418,1.0799929451474717,-1.1105974167355447e-06,0.4986051322774481
85,-5.630605708216185e-05,-0.007635288302162486,0.009716706790207792,-0.0025574143839913826,0.0006686222595388468,-0.00016427422187993565,0.0,0.0,0.5,0.1199999999863372,-1.4417800160054082e-09,0.499998189179646,0.359993177801597,-1.442238684530345e-06,0.4981886035759183,0.5999927048641308,-1.0628837291791006e-06,0.49866505883741635,0.8399926721879751,-1.1625985190237946e-06,0.49853982088915544,1.0799926700448799,-1.1370618140771004e-06,0.49857189401028235
86,-7.774001753605881e-05,-0.007779989126056412,0.009926545026559873,-0.0026125980629063497,0.0006830414147865866,-0.00016781570128570567,0.0,0.0,0.5,0.11999999980977766,-5.379722307146756e-09,0.4999932432752954,0.3599929005699229,-1.4751410915657426e-06,0.4981472794157175,0.5999924084404481,-1.0881654927372511e-06,0.4986333059128873,0.8399923744390045,-1.189882313467484e-06,0.49850555349068715,1.0799923722090174,-1.163833059445108e-06,0.4985382703537781
87,-7.977555912024502e-05,-0.007958399963092657,0.010154453571653692,-0.002672526635852279,0.0006986990302734328,-0.0001716611675520429,0.0,0.0,0.5,0.11999999963738939,-7.427614860088525e-09,0.499990671200862,0.3599925904066371,-1.5089344850275264e-06,0.4981048362107677,0.5999920768069213,-1.1136076730128404e-06,0.4986013515111186,0.8399920413230352,-1.2175182337099042e-06,0.49847084383573204,1.079992038995859,-1.190907384043708e-06,0.49850426604139364
88,-6.277371890726102e-05,-0.008169931190618835,0.010400142929674481,-0.0027371230435685213,0.0007155748000415149,-0.00017580560927419686,0.0,0.0,0.5,0.11999999961815164,-7.622099237202971e-09,0.4999904269359501,0.35999224618801196,-1.543609122937414e-06,0.4980612861966196,0.5999917087522787,-1.1392128526777406e-06,0.4985691923883735,0.8399916716227809,-1.245505600952745e-06,0.4984356927768344,1.0799916691877254,-1.218284947686046e-06,0.49846988087240907
89,-2.7077816948107346e-05,-0.008414021996173705,0.010663337491700982,-0.0028063137307451466,0.0007336493065593201,-0.0001802442294328298,0.0,0.0,0.5,0.11999999976356762,-5.997670470369426e-09,0.4999924671561238,0.35999186651789017,-1.5791558088133365e-06,0.4980166409237014,0.5999913027836024,-1.1649834747088103e-06,0.498536825476368,0.8399912638386803,-1.2738437722757932e-06,0.49840010112148003,1.0799912612846212,-1.2459659017954225e-06,0.49843511465664675
90,1.8183289278647767e-05,-0.00867577903210539,0.010936757376206505,-0.002878185436386684,0.0007524228566782804,-0.00018485433122493062,0.0,0.0,0.5,0.11999999995600752,-2.5871308252185992e-09,0.4999967506629966,0.3599914497468495,-1.6155657718917388e-06,0.49797091140775634,0.5999908571462573,-1.1909218739730248e-06,0.49850424784259756,0.8399908162088784,-1.3025321323622287e-06,0.4983640696424801,1.0799908135242196,-1.2739503913439584e-06,0.49839996721202223
91,4.123948238886269e-05,-0.00890337363025758,0.011195074871272425,-0.00294608631661832,0.0007701590236919827,-0.00018920966604607346,0.0,0.0,0.5,0.11999999998016206,1.7373094843633352e-09,0.5000021819940217,0.35999100556065733,-1.652609719889793e-06,0.4979243856310885,0.5999903822115971,-1.217088331704752e-06,0.49847138377614686,0.8399903391520563,-1.331554934110332e-06,0.4983276181175924,1.0799903363283039,-1.3022421265405927e-06,0.4983644338786597
92,4.2496141494245155e-05,-0.009097467754187374,0.011438614813885388,-0.0030101026969808296,0.0007868805293379175,-0.00019331583786836456,0.0,0.0,0.5,0.11999999989795833,3.940197110111537e-09,0.5000049487363166,0.3599905754690409,-1.6894902864449828e-06,0.4978780650552423,0.5999899223558469,-1.2436923555183265e-06,0.4984379701434949,0.8399898772421462,-1.3608574702980087e-06,0.4982908152569874,1.0799898742837601,-1.3308539965970359e-06,0.4983284984682027
93,2.234382161614562e-05,-0.00925869910144662,0.011667690016418337,-0.0030703176231519644,0.0008026092168495783,-0.0001971782318682811,0.0,0.0,0.5,0.11999999989164468,4.060263713416703e-09,0.5000050995353614,0.35999016085756347,-1.726217778880666e-06,0.49783193673461357,0.599989479047297,-1.2707312102993506e-06,0.498404010379839,0.8399894319531187,-1.3904404593570729e-06,0.49825366015834033,1.0799894288649297,-1.3597858316240581e-06,0.49829216119402336
94,-1.8841714054605715e-05,-0.00938768115518826,0.01188260128964905,-0.0031268108653183194,0.0008173660517951792,-0.00020080201459014946,0.0,0.0,0.5,0.11999999997004522,2.1348245971725706e-09,0.5000026812577438,0.3599897628117608,-1.7628021162052026e-06,0.4977859882113081,0.5999890534454781,-1.298202266151561e-06,0.49836950778822897,0.8399890044495844,-1.4203045917188292e-06,0.49821615195449853,1.0799890012367555,-1.3890374683852157e-06,0.49825542226114433
95,-4.9613680422433784e-05,-0.009535712941639221,0.012108413035965193,-0.0031861617703612833,0.0008328679162480819,-0.00020460854951508294,0.0,0.0,0.5,0.11999999997869941,-1.8002182128309052e-09,0.49999773899503025,0.35998938213629234,-1.7992528297001271e-06,0.4977402075144041,0.599988646420947,-1.326102998279626e-06,0.4983344655397103,0.8399885956066229,-1.450450529826518e-06,0.49817828981345647,1.0799885922746117,-1.4186087502789329e-06,0.49821828186624706
96,-6.078912351297467e-05,-0.009717773881964724,0.01235244262711489,-0.0032502900048627273,0.0008496155390482938,-0.00020872069791508854,0.0,0.0,0.5,0.11999999985230898,-4.7403039241468206e-09,0.49999404636023886,0.35998897451835116,-1.8363587305255885e-06,0.49769360392736395,0.5999882106029503,-1.3542262363360107e-06,0.49829914383228824,0.8399881578426809,-1.4809323568425493e-06,0.4981400058088416,1.0799881543831393,-1.44848693747147e-06,0.49818075601007894
97,-5.274700431499026e-05,-0.0099332449939954,0.012614385960507579,-0.0033191144742418677,0.0008675875241114122,-0.00021313317561294151,0.0,0.0,0.5,0.11999999977828095,-5.808053710613968e-09,0.4999927053074951,0.3599885254343788,-1.8743500161261236e-06,0.49764588833103357,0.5999877304520609,-1.3825115514026403e-06,0.4982636185623619,0.8399876755483422,-1.5117658426966923e-06,0.4981012801342232,1.079987671948339,-1.4786683151973126e-06,0.49814284935823666
98,-2.5834097572415178e-05,-0.010181559687916638,0.0128939642983936,-0.0033925605679970983,0.0008867641354343535,-0.0002178411013531632,0.0,0.0,0.5,0.11999999983306521,-5.039675133935442e-09,0.49999367036149145,0.35998803352816294,-1.9132170141737564e-06,0.49759707287348554,0.5999872045140617,-1.410961516642098e-06,0.4982278864981389,0.839987147262685,-1.5429503095252718e-06,0.4980621136409747,1.0799871435088522,-1.5091530431186258e-06,0.4981045617101947
99,1.0733102948520152e-05,-0.010447682916491488,0.01318383112175269,-0.003468699465276961,0.0009066419785173209,-0.00022272092060409993,0.0,0.0,0.5,0.11999999995995596,-2.468300539149967e-09,0.49999689990927426,0.359987497161966,-1.9529508366571643e-06,0.4975471687177217,0.5999866310431523,-1.4395785037875003e-06,0.4981919446608147,0.8399865712325197,-1.5744851312920016e-06,0.4980225071153742,1.0799865673110074,-1.5399412687601723e-06,0.498065892880668
100,2.5249170830135175e-05,-0.010679896663901905,0.013458723370102692,-0.0035409041916443997,0.0009254925824661579,-0.0002273485441966242,0.0,0.0,0.5,0.11999999999308805,1.0254867127741803e-09,0.5000012879719455,0.35998692852117564,-1.9933202484023697e-06,0.49749646628624405,0.5999860230789145,-1.468423253694005e-06,0.49815571676220455,0.839985960556343,-1.6063544499933124e-06,0.4979824804744623,1.0799859564571617,-1.5710367281869706e-06,0.49802683817729776
101,1.8113713573003604e-05,-0.0108788535621155,0.013718961502721509,-0.003609260062747855,0.0009433384311252446,-0.0002317295213296985,0.0,0.0,0.5,0.11999999996174876,2.412414128216789e-09,0.5000030298995389,0.3599863775090355,-2.0335305486436997e-06,0.4974459636927068,0.599985433968671,-1.4977043669640705e-06,0.4981189408079613,0.8399853688187582,-1.6385038322256286e-06,0.49794210208450795,1.0799853645474535,-1.6024522449741325e-06,0.4979873814941718
102,-1.0288413876477815e-05,-0.011045182077342949,0.013964853969951984,-0.0036738490940227287,0.0009602011200501703,-0.00023586917937488296,0.0,0.0,0.5,0.1199999999803136,1.7306619228892744e-09,0.5000021736449397,0.35998584543904155,-2.0735919180276332e-06,0.4973956481506097,0.599984865107986,-1.5274191380251564e-06,0.4980816201961792,0.8399847974209462,-1.6709339892429184e-06,0.4979013710522013,1.0799847929834303,-1.634187650792166e-06,0.4979475230427016
103,-2.8560291581409595e-05,-0.01123009490538505,0.014221412688211954,-0.003741229166647497,0.0009777905029814604,-0.00024018695557126733,0.0,0.0,0.5,0.11999999999364892,-9.82999210617017e-10,0.4999987653907262,0.35998533333170013,-2.113514147416399e-06,0.49734550736300454,0.5999843175909494,-1.5575649675480149e-06,0.4980437581915162,0.8399842474620316,-1.7036456039250223e-06,0.4978602865198718,1.079984242864545,-1.6662427840630457e-06,0.4979072630258241
104,-3.657518459441316e-05,-0.011433798165916857,0.014488737040393876,-0.0038114253625828637,0.0009961129392228585,-0.0002446843844320478,0.0,0.0,0.5,0.1199999999510586,-2.7287728131138414e-09,0.49999657276609705,0.35998478923371074,-2.1540837817853607e-06,0.49729455345959744,0.599983735882647,-1.5879354814983408e-06,0.4980056139918371,0.8399836631604727,-1.7366925152481746e-06,0.4978187808678317,1.0799836583931133,-1.6986049633218128e-06,0.4978666173709713
105,-3.435121302342829e-05,-0.011656261645029064,0.01476681087047194,-0.0038844323840936763,0.0010151668511904322,-0.0002493610512615054,0.0,0.0,0.5,0.11999999991973537,-3.494550084080192e-09,0.49999561097924083,0.35998421175706385,-2.1953038682563495e-06,0.4972427826133184,0.5999831184955702,-1.6185299058248477e-06,0.4979671885693218,0.8399830430219561,-1.770074920613396e-06,0.4977768538481558,1.0799830380743782,-1.7312741422361793e-06,0.4978255861363397
106,-2.2048608303877616e-05,-0.011897223280390796,0.015055504694503546,-0.003960215148871832,0.0010349428824497678,-0.00025421463132787984,0.0,0.0,0.5,0.11999999992919969,-3.2820622969810096e-09,0.4999958778557446,0.3599835996645073,-2.2371738136863365e-06,0.4971901955691334,0.5999824641060975,-1.649348423868332e-06,0.49792848169369885,0.8399823857169658,-1.803792767262855e-06,0.49773450552710047,1.0799823805784396,-1.7642503334123042e-06,0.49778416930608804
107,3.481521472776096e-08,-0.012156196559954174,0.015354579339688394,-0.00403870976337944,0.00105542415506552,-0.0002592409534965986,0.0,0.0,0.5,0.11999999997083154,-2.10661865052829e-09,0.4999973541678424,0.3599829518875839,-2.279689455430521e-06,0.4971367975551649,0.5999817715738059,-1.6803921574045504e-06,0.49788949195606463,0.8399816901001824,-1.837845757323886e-06,0.4976917362787896,1.0799816847596606,-1.797533607241187e-06,0.49774236679181855
108,-8.26427121017072e-07,-0.012379805642594636,0.01563797454302852,-0.00411308953984664,0.0010748318547075715,-0.0002640038230772181,0.0,0.0,0.5,0.11999999999999994,3.326395011548066e-12,0.5000000041778244,0.3599822675461616,-2.322843177319978e-06,0.49708259813702804,0.5999810399621948,-1.7116631357047535e-06,0.4978502168077284,0.8399809552312884,-1.8722333559507092e-06,0.4976485467749612,1.0799809496774757,-1.8311240899449309e-06,0.49770017843498965
109,-2.4244889652961526e-05,-0.012568683413181155,0.01590600132081957,-0.004183437474534992,0.0010931878894004101,-0.00026850865209254396,0.0,0.0,0.5,0.11999999999995901,-7.896039344449643e-11,0.49999990082877693,0.35998160662885204,-2.3658159521731375e-06,0.49702862598142267,0.5999803333963792,-1.743376097752854e-06,0.4978103865447718,0.8399802455200196,-1.9068995715038357e-06,0.49760500733896923,1.0799802397602423,-1.8650349702734658e-06,0.49765758767104395
110,-3.740549058750771e-05,-0.012776350189734867,0.016184787048522338,-0.004256595277984499,0.001112274512994768,-0.0002731924115900577,0.0,0.0,0.5,0.11999999996473112,-2.3164607950823037e-09,0.49999709061416414,0.35998097039502297,-2.4086176761163843e-06,0.49697486865919344,0.5999796532218892,-1.775528408395629e-06,0.4977700044768455,0.8399795623177805,-1.941845097440802e-06,0.49756111709985773,1.0799795563597467,-1.8992660839171862e-06,0.49761459470634867
111,-4.025482727019157e-05,-0.013002892308871404,0.016474372251755052,-0.004332572331043563,0.001132093941333416,-0.0002780556126658596,0.0,0.0,0.5,0.11999999991604979,-3.5738810815532445e-09,0.4999955113425533,0.3599802971054834,-2.4520692820339304e-06,0.4969202951101526,0.5999789334444765,-1.8079048971933725e-06,0.49772934084976267,0.8399788393376701,-1.977126027088846e-06,0.49751680560656075,1.0799788331699465,-1.933804219711048e-06,0.49757121613361865
112,-3.2883815178149914e-05,-0.013248160670890458,0.016774682399815426,-0.004411347794547482,0.0011526405011986374,-0.00028309682981516405,0.0,0.0,0.5,0.11999999990277294,-3.846118934873238e-09,0.49999516942226,0.3599795853497262,-2.4961719445931825e-06,0.4968649038589605,0.5999781725544171,-1.8405052884286786e-06,0.4976883960098124,0.8399780750632073,-2.0127424266193837e-06,0.49747207277596817,1.079978068673921,-1.968649362298659e-06,0.49752745197214004
113,-1.5523982411977472e-05,-0.013511776796958927,0.017085530891174313,-0.004492871412549668,0.001173900843541314,-0.0002883127537754368,0.0,0.0,0.5,0.11999999993511927,-3.141860810133883e-09,0.4999960539434301,0.3599788339091212,-2.540923216020692e-06,0.49680869797992955,0.5999773692499062,-1.8733302582381359e-06,0.4976471691077955,0.8399772681869422,-2.048694113663588e-06,0.4974269188371314,1.0799772615638545,-2.003801554897799e-06,0.4974833021676365
114,1.1457924854930374e-05,-0.013793141643776544,0.017406623390694362,-0.00457706467366965,0.0011958542507623307,-0.0002936982675369076,0.0,0.0,0.5,0.1199999999855404,-1.4832278949384339e-09,0.49999813712270114,0.35997804177641896,-2.58631712162011e-06,0.4967516849770482,0.5999765224578386,-1.9063814090120095e-06,0.4976056581311686,0.8399764176313229,-2.0849806640819734e-06,0.49738134432274844,1.0799764107619076,-2.03926089769514e-06,0.4974387665942703
115,1.65624543204775e-05,-0.0140408853439369,0.01771289204019726,-0.00465737056531585,0.0012167939808357194,-0.00029883510445901805,0.0,0.0,0.5,0.11999999999212295,1.0947393080101158e-09,0.5000013749505468,0.3599772081761375,-2.6323442981041204e-06,0.49669387661024367,0.5999756313553493,-1.9396612324793794e-06,0.49756385995041685,0.8399755225703152,-2.121601421728573e-06,0.49733535005691787,1.0799755154418416,-2.075027545571135e-06,0.4973938450575253
116,1.8289809108266146e-07,-0.014255650396235954,0.01800465271549042,-0.0047338734816677165,0.0012367423288776205,-0.0003037287747002045,0.0,0.0,0.5,0.1199999999835411,1.5824479572769573e-09,0.5000019874938884,0.3599763985744737,-2.6782176834582363e-06,0.4966362613991961,0.5999747659112393,-1.9733758322337413e-06,0.49752151570733905,0.8399746532821064,-2.1585026920989912e-06,0.49728900347787364,1.079974645902069,-2.1111141447197066e-06,0.4973485216742623
117,-3.849017335661555e-05,-0.01443611785612524,0.018281264092118096,-0.0048064074156092115,0.0012556564079441777,-0.0003083688138005247,0.0,0.0,0.5,0.11999999999999798,1.7474868460708884e-11,0.5000000219477639,0.3599756142105413,-2.723947336550175e-06,0.496578826710351,0.5999739274457419,-2.0075225271642625e-06,0.4974786287693054,0.8399738110924339,-2.1956851811449916e-06,0.49724230369896644,1.0799738034686837,-2.1475205278080036e-06,0.49730279665464483
118,-6.652125768388642e-05,-0.014635996385133057,0.018568928831384158,-0.004881821356399499,0.0012753180572527183,-0.00031319176476695163,0.0,0.0,0.5,0.1199999999111104,-3.6775163277493263e-09,0.4999953811806624,0.3599748586367568,-2.7695132606149867e-06,0.49652159765888054,0.5999731197632112,-2.0421065072550326e-06,0.4974351926178994,0.8399729998228891,-2.2331475440739603e-06,0.49719525240920975,1.0799729919644014,-2.1842470104623917e-06,0.4972566696022651
119,-7.503295582098968e-05,-0.014869761142233671,0.018874705875528627,-0.004961958129288456,0.0012962062849996305,-0.0003183149227702165,0.0,0.0,0.5,0.11999999973449534,-6.35572640549938e-09,0.49999201745161403,0.35997406051875636,-2.8157377611854274e-06,0.49646354146059823,0.5999722666247337,-2.076912569564883e-06,0.49739147753974866,0.8399721428978073,-2.2709458255954873e-06,0.49714777921859166,1.079972134791554,-2.2212803960489363e-06,0.4972101570915784
120,-6.4393088081112e-05,-0.015136810784725487,0.019198298592239336,-0.00504673772601426,0.0013182998178930786,-0.00032373301115794527,0.0,0.0,0.5,0.11999999966220334,-7.168970568243555e-09,0.4999909960481639,0.3599731985365619,-2.8628421830841957e-06,0.4964043801149067,0.5999713452341576,-2.1118828461538626e-06,0.49734755621476967,0.8399712174198083,-2.309095085330852e-06,0.49709986521281474,1.079971209046152,-2.2586171387984526e-06,0.49716326357594653
121,-3.495078324890616e-05,-0.01543657428644013,0.01953942480003354,-0.00513608366242638,0.0013415782529638176,-0.00032944095993667276,0.0,0.0,0.5,0.11999999975121181,-6.152391949843829e-09,0.49999227283188485,0.35997227109326974,-2.9108170188282e-06,0.49634412556283836,0.5999703538838788,-2.1470198896072917e-06,0.4973034254370097,0.8399702216738381,-2.3475946467748116e-06,0.497051511241537,1.0799702130126603,-2.296257398207403e-06,0.4971159888550387
122,4.2235975761326235e-06,-0.015754260067873442,0.019890867405799317,-0.005228108886480234,0.001365550542362666,-0.0003353184488559054,0.0,0.0,0.5,0.11999999992670657,-3.339347809119765e-09,0.4999958059073404,0.35997127632911496,-2.9596531941458862e-06,0.49628278920132934,0.5999692905948673,-2.182326145781697e-06,0.4972590821345664,0.8399691536728506,-2.3864438601296134e-06,0.4970027181208789,1.0799691447035162,-2.3342013276073805e-06,0.4970683327362753
123,2.1301493073804884e-05,-0.01603797027425896,0.020227318948983733,-0.005316207190955196,0.001388499645781848,-0.00034094504175279203,0.0,0.0,0.5,0.11999999999892966,4.035406364099682e-10,0.5000005068315485,0.3599702329764224,-3.0091241695374107e-06,0.49622065555529626,0.599968175401662,-2.217860917965529e-06,0.4972144518247891,0.8399680335408749,-2.4256272791946864e-06,0.49695350525068044,1.0799680242485987,-2.372452564913879e-06,0.49702029065058184
124,1.6684334883555417e-05,-0.01628836090420759,0.020549102367206785,-0.0054004651736967585,0.0014104484974410698,-0.0003463264146476859,0.0,0.0,0.5,0.11999999997277479,2.035236055498868e-09,0.5000025561783584,0.35996921658940295,-3.058436437467386e-06,0.4961587212397422,0.5999670890435661,-2.253831644101985e-06,0.4971692739735808,0.8399669423728213,-2.465090925218974e-06,0.49690394042617675,1.0799669327660382,-2.411023821324172e-06,0.49697184663317656
125,-9.241193474761269e-06,-0.016506063747205816,0.020856528465604034,-0.00548096602476232,0.0014314191014730398,-0.0003514680095430542,0.0,0.0,0.5,0.119999999983298,1.5940929492766514e-09,0.5000020021195514,0.35996822858930466,-3.107600307042828e-06,0.49609697330682445,0.5999660330280775,-2.2902355681148737e-06,0.4971235520424704,0.8399658816820006,-2.5048355251417494e-06,0.4968540227343634,1.0799658717695202,-2.4499149243201547e-06,0.4969230009007403
126,-2.5099478930449957e-05,-0.016742234291133178,0.021174534806513875,-0.00556421349869211,0.0014531007727259925,-0.0003567833185997691,0.0,0.0,0.5,0.11999999999487602,-8.829432796875574e-10,0.4999988910571345,0.35996727010314983,-3.156625687681606e-06,0.49603539931069546,0.5999650085600985,-2.327070044739251e-06,0.4970772893538066,0.8399648526785595,-2.5448617760118888e-06,0.49680375129977,1.0799648424695307,-2.4891257085196074e-06,0.496873753660981
127,-3.079729503302991e-05,-0.016997023410042188,0.021503192542786317,-0.005650224331309911,0.001475497520314321,-0.0003622732752975931,0.0,0.0,0.5,0.119999999962201,-2.3981119217787836e-09,0.49999698806348336,0.3599662635347993,-3.206294019508047e-06,0.49597301779255637,0.5999639327280549,-2.36413094804474e-06,0.49703074228192473,0.8399637720867323,-2.585222769772866e-06,0.49675305944095827,1.0799637615665378,-2.5286436751280387e-06,0.49682412061191195
128,-2.6384301636162225e-05,-0.017270348935740462,0.02184245906067224,-0.0057389854663007535,0.001498605592594181,-0.0003679369103553849,0.0,0.0,0.5,0.1199999999430916,-2.942505722050283e-09,0.499996304325768,0.35996520718241853,-3.256607386208279e-06,0.495909826135377,0.5999628037120598,-2.4014177814587514e-06,0.49698391145049864,0.839962638078673,-2.6259186271689137e-06,0.49670194700627396,1.0799626272321812,-2.5684687961182114e-06,0.49677410178872783
129,-1.2049939709973975e-05,-0.017561900740662554,0.02219218049979048,-0.005830454744172081,0.00152241366203854,-0.00037377139782167736,0.0,0.0,0.5,0.11999999995823216,-2.520869396377436e-09,0.4999968338848076,0.3599640996156097,-3.307564296730858e-06,0.4958458262118599,0.5999616199850883,-2.4389309853800515e-06,0.4969367963064041,0.8399614491208796,-2.6669492247074166e-06,0.496650414150819,1.0799614379325417,-2.608601101010327e-06,0.49672369715435316
130,1.1881434173581812e-05,-0.017871148694222457,0.022552095680890363,-0.005924561963589674,0.0015469031077958145,-0.0003797721252110459,0.0,0.0,0.5,0.11999999999128795,-1.15130294766724e-09,0.49999855400769316,0.3599629396960208,-3.3591597667987867e-06,0.4957810242820666,0.5999603803349698,-2.476671915061376e-06,0.49688939514749875,0.8399602039962791,-2.7083142005697557e-06,0.4965984613290289,1.079960192450233,-2.6490406754825786e-06,0.49667290660118646
131,1.3993462629547712e-05,-0.018146877749664354,0.0228972522138672,-0.006014810119357083,0.0015703883470853468,-0.0003855267939576049,0.0,0.0,0.5,0.1199999999915299,1.1352032056429744e-09,0.5000014257716489,0.359961726597584,-3.4113854449503326e-06,0.49571543083511216,0.5999590838858035,-2.514642806712253e-06,0.4968417051651857,0.8399589018257241,-2.7500129635908746e-06,0.4965460892833772,1.0799588899059016,-2.689787659234094e-06,0.4966217299537606
132,-5.3225318759854195e-06,-0.018389727434138463,0.023227965045021337,-0.006101283760749017,0.0015928917884475526,-0.0003910409522997495,0.0,0.0,0.5,0.11999999998825098,1.3369954672884975e-09,0.5000016792149833,0.35996054489023527,-3.4634602760292784e-06,0.49565002684629117,0.5999578209911788,-2.5530474078513952e-06,0.4967934704604054,0.839957633358522,-2.7919925713383684e-06,0.4964933645075318,1.079957621074657,-2.7308545153095895e-06,0.49657015155897716
133,-1.4716223469126781e-05,-0.018650802274710193,0.023569126768117992,-0.0061904598733623275,0.001616092991635323,-0.0003967253081401181,0.0,0.0,0.5,0.11999999999830023,-5.085375350817494e-10,0.49999936129637734,0.35995939579969294,-3.5153943215626144e-06,0.49558479967871005,0.5999565929569691,-2.5918830260714254e-06,0.49674469441471686,0.8399563999059015,-2.8342537342513797e-06,0.4964402861092068,1.0799563872680722,-2.772241074972049e-06,0.4965181716287617
134,-1.4182713691854019e-05,-0.018930108913357502,0.023920737758181817,-0.006282336380767363,0.0016399910142301825,-0.0004025795737836712,0.0,0.0,0.5,0.11999999998700596,-1.4060511393520843e-09,0.4999982340537435,0.35995819301113174,-3.5679664103078485e-06,0.4955187711533474,0.5999553075720258,-2.6309466132661827e-06,0.4966956320487458,0.8399551088536072,-2.876849193863218e-06,0.49638678784705864,1.0799550958456203,-2.813934924908004e-06,0.4964658057537556
135,-3.855258260404789e-06,-0.019227428713418884,0.024282688508233823,-0.006376882502333107,0.0016645774496273436,-0.00040860163334856476,0.0,0.0,0.5,0.11999999998793104,-1.3550773258794876e-09,0.4999982980748965,0.3599569349336784,-3.621176379715155e-06,0.49545194147436233,0.5999539631378799,-2.670238268878768e-06,0.4966462832375998,0.8399537584959876,-2.9197789143313203e-06,0.4963328697661098,1.0799537451011891,-2.855936074083449e-06,0.496413053922705
136,1.599883033694889e-05,-0.019542324464351203,0.024654762948566243,-0.006474039657138352,0.0016898366689392947,-0.00041478760298444207,0.0,0.0,0.5,0.11999999999910824,-3.683479175953519e-10,0.49999953736915537,0.3599556202929406,-3.6750206201967397e-06,0.495384315175254,0.5999525582969166,-2.709758993988236e-06,0.49659664672395726,0.839952347469927,-2.9630426251084217e-06,0.4962785322061518,1.079952333671312,-2.8982445867392935e-06,0.49635991605491964
137,1.4109561543795965e-05,-0.01982382903681311,0.02501214872889897,-0.006567361696643882,0.0017140989677588178,-0.0004207294481651327,0.0,0.0,0.5,0.11999999998464224,1.528596903316667e-09,0.5000019198590319,0.3599542481512164,-3.729492182214705e-06,0.49531590098437656,0.5999510920538191,-2.7495106623541983e-06,0.49654672015444984,0.8399508747763722,-3.0066398286780158e-06,0.4962237757920489,1.0799508605566999,-2.940860580592305e-06,0.49630639200255516
138,-9.134456223840467e-06,-0.020072577598359273,0.0253551588169264,-0.006656932768333754,0.0017373866711468476,-0.0004264326996289988,0.0,0.0,0.5,0.11999999998805522,1.3480880557495286e-09,0.5000016931468485,0.35995291052972606,-3.783815544466682e-06,0.4952476729267164,0.5999496627046347,-2.7896951984988777e-06,0.49649624991962843,0.8399494391398005,-3.0505181229155e-06,0.4961686663388559,1.0799494245097292,-2.9837963880880395e-06,0.49625246627652986
139,-2.236141657269779e-05,-0.02033969998687101,0.02570867806344581,-0.006749212833738146,0.001761372124306242,-0.00043230590440918704,0.0,0.0,0.5,0.11999999999499372,-8.727451447120069e-10,0.4999989038656006,0.3599516086021952,-3.838000715628928e-06,0.49517961843175934,0.5999482715010381,-2.830309920770577e-06,0.49644523938754487,0.8399480418170513,-3.0946782158841953e-06,0.49611320295727407,1.0799480267875698,-3.027051840933077e-06,0.49619813908821647
140,-2.551459853342008e-05,-0.02062528712484786,0.026072747478635774,-0.006844210072786157,0.0017860569858225337,-0.0004383494025689797,0.0,0.0,0.5,0.11999999996999805,-2.136505694823589e-09,0.49999731663086205,0.3599502480636665,-3.892825082619474e-06,0.4951107611313812,0.5999468177146732,-2.871152552876875e-06,0.4963939426094597,0.8399465816415888,-3.1391725793086598e-06,0.4960573197448339,1.079946566195167,-3.0706145930391077e-06,0.4961434259438305
141,-1.8678293535039733e-05,-0.02092920002594462,0.026447295994944196,-0.006941903434336237,0.0018114353218267028,-0.0004445616758058612,0.0,0.0,0.5,0.11999999996094032,-2.437774229963849e-09,0.4999969382491468,0.3599488271061402,-3.948289728827448e-06,0.49504109966488413,0.5999452994152896,-2.912222877726138e-06,0.49634235985802994,0.8399450566750359,-3.1840012581224518e-06,0.49600101664509794,1.0799450407936235,-3.1144846344388596e-06,0.4960883268558872
142,-2.0742873827696175e-06,-0.021251075556981046,0.026832143330807426,-0.007042243424334318,0.0018374938183998604,-0.00045093940052935195,0.0,0.0,0.5,0.11999999997906728,-1.7846043151363929e-09,0.4999977586054864,0.35994734427188246,-4.004392225451215e-06,0.49497063708274824,0.5999437150496569,-2.9535215956770972e-06,0.4962904902536305,0.8399434653578806,-3.2291640586663445e-06,0.49594429390129385,1.079943449023027,-3.1586620113589386e-06,0.49603284176632717
143,2.394339875776866e-05,-0.021590335041230885,0.027227004245048148,-0.00714515326081176,0.0018642120900197333,-0.00045747752455363124,0.0,0.0,0.5,0.11999999999974184,-1.98186317577249e-10,0.49999975108559297,0.3599457984746104,-4.0611267245501665e-06,0.4948993807297665,0.5999420634640995,-2.9950502991586117e-06,0.49623833179623295,0.8399418065320996,-3.2746605554898954e-06,0.49588715204777095,1.0799417897250818,-3.2031468246162392e-06,0.4959769705485268
144,2.811238370554558e-05,-0.02189603621014348,0.027607104256338312,-0.007244215907611992,0.0018899315720302238,-0.00046377124584681743,0.0,0.0,0.5,0.11999999996560282,2.287655061228785e-09,0.5000028732069399,0.35994418901901826,-4.118484095994845e-06,0.4948273420730286,0.5999403439250811,-3.036811435706092e-06,0.49618588141182784,0.8399400794618137,-3.320490101184033e-06,0.4958295918976527,1.0799400621637663,-3.2479392273058445e-06,0.49592071301020885
145,1.082543775244937e-05,-0.022168821204157654,0.027972760129669816,-0.007339516803968246,0.0019146749801994781,-0.00046982619855018607,0.0,0.0,0.5,0.11999999995258165,2.685977772641897e-09,0.5000033734849749,0.3599426175082584,-4.175691543484906e-06,0.4947554917150219,0.5999386649360667,-3.07900571235037e-06,0.49613288702008934,0.8399383931203034,-3.3666006994508047e-06,0.49577167875629463,1.0799383753429033,-3.2930514522898012e-06,0.49586405378737025
146,-2.7539436604426968e-05,-0.02240930787269281,0.02832427635665035,-0.007431137870278796,0.0019384640577743886,-0.0004756477704841923,0.0,0.0,0.5,0.1199999999929686,1.0343087761613073e-09,0.5000012990521185,0.359941085190345,-4.232759218855928e-06,0.4946838169054306,0.5999370278236251,-3.1216304020663378e-06,0.49607935204605297,0.8399367488392785,-3.412993071347704e-06,0.49571341171807,1.0799367305945284,-3.3384833279759243e-06,0.49580699309551524
147,-5.545287163060825e-05,-0.022668867726582224,0.028686624131867018,-0.0075255380790182095,0.001962966522722616,-0.0004816427583953688,0.0,0.0,0.5,0.11999999995449477,-2.631235948034462e-09,0.49999669526865537,0.35993959303462814,-4.289696863875335e-06,0.49461230540897066,0.599935433628148,-3.164682893312211e-06,0.49602527976971966,0.8399351476637733,-3.4596679065341597e-06,0.4956547899168,1.07993512896397,-3.3842346903307575e-06,0.49574953114067305
148,-6.385311713399766e-05,-0.02296226249862034,0.029066973086938647,-0.007624567418157228,0.001988659206497903,-0.0004879273537757687,0.0,0.0,0.5,0.11999999981549876,-5.29820530810758e-09,0.49999334565751696,0.3599380351124902,-4.347282692195048e-06,0.49453997981916725,0.5999337692375163,-3.2079613133284033e-06,0.49597092373552176,0.8399334759933068,-3.506677464666322e-06,0.49559574771635684,1.0799334568190286,-3.430293249867195e-06,0.4956916833579594
149,-5.311202570723732e-05,-0.023288883373702465,0.02946502100553829,-0.007728142938938687,0.002015519799807584,-0.0004944959880855425,0.0,0.0,0.5,0.11999999975536679,-6.100800808579156e-09,0.49999233762837786,0.3599363783264167,-4.40573978162538e-06,0.49446655995885536,0.5999319993046548,-3.2514079125457508e-06,0.4959163564747058,0.8399316983282541,-3.5540366745050998e-06,0.49553626636679565,1.079931678650186,-3.4766554967349464e-06,0.4956334541556199
150,-2.3573306938404045e-05,-0.02364816715253952,0.02988048735230873,-0.007836186932849924,0.0020435272784846722,-0.000501343396628109,0.0,0.0,0.5,0.11999999983074677,-5.074550844054356e-09,0.4999936265589383,0.35993462094938733,-4.465058330119865e-06,0.4943920581390267,0.5999301219903346,-3.29502535902586e-06,0.49586157463628067,0.8399298128222027,-3.6017448227931243e-06,0.4954763467639287,1.0799297926105806,-3.523321599423026e-06,0.49557484332202273
151,1.5500861839919682e-05,-0.02402502229670261,0.030306035172124723,-0.00794680075886757,0.002072191248802021,-0.0005083499376026977,0.0,0.0,0.5,0.11999999996665796,-2.2522949007060865e-09,0.4999971712040643,0.3599327609509694,-4.525229181774597e-06,0.4943164858591453,0.5999281351412717,-3.3388161629165948e-06,0.495806575067606,0.8399278173140119,-3.649801235585271e-06,0.4954159897542199,1.0799277965385814,-3.570291717388328e-06,0.49551585065691733
152,3.2492617874024493e-05,-0.024367943880155,0.030716650696153782,-0.008053531116245127,0.0020998485834280143,-0.0005151103782576618,0.0,0.0,0.5,0.1199999999855834,1.4810188562709095e-09,0.5000018601028311,0.3599308284542039,-4.586023613064903e-06,0.49424013038718156,0.5999260709396927,-3.3828396801791724e-06,0.4957512832198704,0.8399257441260966,-3.698190544304897e-06,0.4953552146400054,1.0799257227657157,-3.617569466076045e-06,0.49545647161943324
153,2.7803491551650106e-05,-0.024677588627957613,0.031112658434769336,-0.008156465942502862,0.0021265227344503717,-0.0005216305452615842,0.0,0.0,0.5,0.11999999993665379,3.104484141040547e-09,0.5000038991129083,0.3599289377411843,-4.646663421210113e-06,0.4941639691159504,0.5999240513930193,-3.427297343741624e-06,0.4956954461010472,0.8399237157899068,-3.746860685027254e-06,0.49529408681157633,1.079923693857423,-3.6651670890056214e-06,0.49539669083218185
154,1.8201751266633536e-06,-0.024954588832323293,0.031494370500864934,-0.00825568958355076,0.0021522361551360738,-0.0005279160114820422,0.0,0.0,0.5,0.11999999995361794,2.656464890775137e-09,0.5000033364179283,0.35992709021659297,-4.707159039143351e-06,0.49408798894209205,0.5999220779862867,-3.4721863405395434e-06,0.4956390672442369,0.8399217337956437,-3.7958124031117257e-06,0.4952326053327856,1.0799217113042285,-3.7130844085243907e-06,0.49533650851828037
155,-4.627876182760476e-05,-0.025197608871121036,0.03186114348710992,-0.008351040037223855,0.0021769478422746335,-0.0005339568926611205,0.0,0.0,0.5,0.11999999999980122,1.739073422012871e-10,0.500000218420946,0.35992528699689563,-4.767520482591789e-06,0.49401217728623437,0.5999201519086459,-3.5175039759132984e-06,0.4955821500338314,0.8399197993371187,-3.845046411590855e-06,0.49517076930810083,1.079919776300235,-3.761321254784779e-06,0.4952759248910661
156,-8.355836424706829e-05,-0.025460289496543487,0.03223900837728966,-0.00844921799501785,0.0022023818611859474,-0.0005401728685659971,0.0,0.0,0.5,0.11999999987149655,-4.421671491407946e-09,0.4999944465503429,0.35992353346879613,-4.827728053251975e-06,0.49393655888869353,0.5999182789189653,-3.5632552418737094e-06,0.4955246882000535,0.8399179181981444,-3.894561437360187e-06,0.49510858033648264,1.0799178946308614,-3.8098779247886102e-06,0.4952149395774995
157,-0.00010117678162265754,-0.025757028090454617,0.03263494511908625,-0.008552014950258974,0.0022289981760155357,-0.0005466757659100595,0.0,0.0,0.5,0.11999999958108003,-7.983524670307018e-09,0.4999899729994803,0.35992170525877126,-4.888590400850611e-06,0.4938601181164518,0.5999163262579432,-3.6092312277752647e-06,0.4954669441266545,0.8399159570519213,-3.944411412655759e-06,0.49504597068111517,1.0799159329325516,-3.858741744852469e-06,0.49515356849524567
158,-9.950195403540053e-05,-0.02608722199211118,0.0330486539965181,-0.008659348218940249,0.0022567744760437357,-0.0005534600060096681,0.0,0.0,0.5,0.1199999993857955,-9.666863862008916e-09,0.4999878587900744,0.35991976624547595,-4.950323937081399e-06,0.4937825831647318,0.5999142553615612,-3.6553761626246524e-06,0.4954089878598649,0.8399138771696278,-3.99461071058606e-06,0.49498292228993285,1.0799138524658294,-3.907909338415871e-06,0.4950918158851444
159,-7.889302412362223e-05,-0.026450282609006667,0.033479841583439786,-0.008771136334730879,0.0022856886895355143,-0.0005605200577948187,0.0,0.0,0.5,0.11999999940596168,-9.50684364823081e-09,0.49998805976932015,0.3599177147669858,-5.012918906838419e-06,0.49370396628557006,0.599912064459075,-3.701692712146776e-06,0.4953508160516322,0.8399116767737307,-4.045158616749895e-06,0.4949194360601875,1.0799116514527451,-3.957380874292359e-06,0.49502968153515997
160,-3.969896522322834e-05,-0.02684563765363974,0.03392822183363612,-0.008887299332901529,0.002315719057459238,-0.0005678504558535646,0.0,0.0,0.5,0.11999999962655347,-7.53777805682313e-09,0.4999905328401158,0.359915548920569,-5.0763657181411095e-06,0.4936242795261289,0.5999097515330509,-3.748183510525632e-06,0.4952924253935292,0.8399093538396704,-4.096054423167968e-06,0.4948555128810856,1.0799093278683023,-4.0071565200135315e-06,0.49496716523489515
161,9.111817121365154e-06,-0.0272586803433063,0.03438670603319336,-0.009006012211634294,0.0023463959662773774,-0.0005753368780800888,0.0,0.0,0.5,0.11999999990543952,-3.79300948967506e-09,0.4999952361256845,0.3599132665710072,-5.140654976245037e-06,0.49354353468584117,0.5999073143277531,-3.7948511514744107e-06,0.4952338126279421,0.8399069061042562,-4.147297430562773e-06,0.49479115363087833,1.0799068794488553,-4.057236441232808e-06,0.49490426677627675
162,3.566802586225701e-05,-0.027637517883253408,0.034830143711507146,-0.009120825124456708,0.0023760644377678265,-0.0005825771095673844,0.0,0.0,0.5,0.11999999999501848,8.705821077144648e-10,0.5000010934177079,0.35991090083033994,-5.205566448281762e-06,0.4934620083687425,0.5999047882084723,-3.841752539297154e-06,0.4951749062852562,0.8399043690854749,-4.198872949123651e-06,0.4947263767594122,1.0799043417222889,-4.107624091707831e-06,0.4948409818215268
163,4.0377670211982724e-05,-0.027982817895037215,0.0352588653976321,-0.009231828112165183,0.0024047485672238655,-0.000589577148005597,0.0,0.0,0.5,0.11999999992366753,3.4078762461345193e-09,0.5000042801617459,0.3599085822739929,-5.270320778640516e-06,0.49338067941555763,0.5999023125134466,-3.8890883818614866e-06,0.4951154542840916,0.8399018827126217,-4.25072928329694e-06,0.4946612471943167,1.0799018546561034,-4.158331619462559e-06,0.4947772951131935
164,2.363392797504698e-05,-0.028295223543886795,0.03567318914188406,-0.009339107551410672,0.0024324714229116973,-0.0005963427290619099,0.0,0.0,0.5,0.11999999990217863,3.857855876656698e-09,0.5000048453188883,0.3599063124023074,-5.334928631776829e-06,0.4932995344321411,0.599899888821685,-3.936855791594377e-06,0.4950554602511299,0.8398994485696092,-4.302867199913991e-06,0.49459576397248023,1.0798994198345124,-4.209358841386198e-06,0.49471320688125503
165,-1.4184878427361156e-05,-0.028575353508461063,0.03607342051902515,-0.009442746168775792,0.0024592550522086263,-0.000602879328236874,0.0,0.0,0.5,0.11999999996648623,2.258086894677927e-09,0.5000028360704578,0.3599040924213163,-5.39940024827283e-06,0.49321856055671304,0.5998975184102636,-3.985052002413355e-06,0.4949949276604639,0.8398970679379226,-4.355287432454301e-06,0.49452992617268116,1.0798970385392714,-4.260705582426987e-06,0.4946487173455712
166,-4.178101285157665e-05,-0.028874155329589125,0.03648422830672082,-0.009549052593938167,0.0024867148720085683,-0.0006095790712471945,0.0,0.0,0.5,0.11999999998792736,-1.3552841539987755e-09,0.49999829781512833,0.35990192326392584,-5.463745445996244e-06,0.493137745458414,0.5998952022762831,-4.033674369073625e-06,0.4949338598344226,0.8398947418186327,-4.4079906812732515e-06,0.49446373291530304,1.079894711771693,-4.31237167552752e-06,0.49458382671596196
167,-5.890187664552062e-05,-0.029192037688283025,0.03690580503391867,-0.00965807197044356,0.0025148616720447213,-0.0006164444670726979,0.0,0.0,0.5,0.1199999998952608,-3.991937254249644e-09,0.49999498628004846,0.3598996711212755,-5.528727241530967e-06,0.4930561308177005,0.5998927976688936,-4.0825268662693244e-06,0.49487250297326224,0.839892326859527,-4.4610273592674566e-06,0.49439712088367943,1.0798922961407642,-4.364345284538244e-06,0.49451854985817356
168,-5.673094656931901e-05,-0.029543347480742065,0.03734508700381962,-0.00977157019135986,0.0025441461374561356,-0.0006235847007074256,0.0,0.0,0.5,0.11999999979183414,-5.627738046806631e-09,0.499992931777047,0.3598973330165861,-5.594351261215388e-06,0.49297370956810577,0.5998903014150803,-4.131608156905783e-06,0.4948108587563206,0.8398898198748868,-4.514397791212704e-06,0.49433008966990233,1.0798897884599659,-4.416626334329163e-06,0.4944528868665634
169,-3.562479973802992e-05,-0.029927499872619664,0.037801781702935626,-0.009889465326965968,0.0025745459496309252,-0.0006309941630269456,0.0,0.0,0.5,0.11999999980689596,-5.420318071939323e-09,0.4999931922885732,0.3598948677261682,-5.660831409636722e-06,0.49289021305368574,0.5998876695432083,-4.180863497351129e-06,0.4947489959395039,0.8398871767091395,-4.568116018106624e-06,0.4942626216390248,1.0798871445618916,-4.469211529903367e-06,0.4943868418795296
170,-4.7501620466322165e-06,-0.03032957238327409,0.03826866229408844,-0.010009908112363334,0.0026055873714674093,-0.0006385578298022188,0.0,0.0,0.5,0.11999999992385244,-3.4037462367397406e-09,0.49999572502538736,0.3598922733230436,-5.728158066537274e-06,0.49280565335711035,0.5998849000155126,-4.2302955471676405e-06,0.49468691118249897,0.8398843953179294,-4.622181322293407e-06,0.49419471769238876,1.0798843624017946,-4.522101041238942e-06,0.4943204146835785
171,3.534157165888817e-05,-0.030748664616553942,0.03874528680705406,-0.010132780944578835,0.0026372394306026377,-0.0006462680601562885,0.0,0.0,0.5,0.11999999999864616,-4.5385086547526253e-10,0.4999994299807351,0.3598895879306214,-5.796107611964726e-06,0.4927203113364546,0.5998820335205832,-4.279961786234328e-06,0.4946245322927854,0.839881516562685,-4.6765789174290585e-06,0.4941263964010768,1.0798814828522678,-4.5752983413907065e-06,0.4942536009166904
172,5.334900711608129e-05,-0.03113384157363699,0.03920703081612383,-0.010251815287955279,0.0026679024011296267,-0.000653737312248407,0.0,0.0,0.5,0.11999999992505843,3.376685410708173e-09,0.5000042409872539,0.3598868118375873,-5.8646660077742355e-06,0.49263420462309077,0.5998790703861806,-4.3298659421783285e-06,0.49456185458860613,0.8398785407744354,-4.7313078238459e-06,0.49405765899551246,1.0798785062445768,-4.62880366186835e-06,0.49418640028809513
173,5.121860237474808e-05,-0.03148827404699297,0.039655434484248575,-0.010367408731486404,0.0026976787902750123,-0.0006609905687061965,0.0,0.0,0.5,0.11999999982923303,5.097193064739809e-09,0.5000064018788217,0.3598840895182536,-5.9330739167823e-06,0.4925482869153717,0.5998761646869966,-4.38020233629062e-06,0.4944986340098809,0.8398756226709018,-4.7863182067162015e-06,0.4939885680663298,1.0798755873378285,-4.682628700538592e-06,0.49411879810572656
174,2.932476201601117e-05,-0.03181257438846664,0.04009080042825485,-0.01047964332290129,0.0027265904843485115,-0.0006680332676573045,0.0,0.0,0.5,0.11999999984259929,4.8936450541967794e-09,0.5000061462303341,0.35988141499481496,-6.001379274227488e-06,0.4924624980084803,0.5998733100299491,-4.4309585534434e-06,0.49443488614953063,0.8398727558307285,-4.841613274385196e-06,0.4939191195839643,1.0798727197088294,-4.736772701274359e-06,0.49405079531924156
175,-1.3544533973619632e-05,-0.032104773815204865,0.04051218419535901,-0.01058828424043887,0.0027545786169197064,-0.0006748513004900399,0.0,0.0,0.5,0.1199999999484035,2.8018135988438974e-09,0.500003518970326,0.35987878915777627,-6.069591813021366e-06,0.4923768256782532,0.5998705073573685,-4.48213196833524e-06,0.4943706143048378,0.8398699411992807,-4.8971937223333864e-06,0.4938493126749271,1.0798699043031228,-4.791235498104112e-06,0.4939823921371057
176,-4.616100806637952e-05,-0.032415675184091615,0.040944119061616276,-0.010699556309217024,0.002783227883879797,-0.0006818280131372472,0.0,0.0,0.5,0.11999999998899274,-1.2941028970956409e-09,0.4999983746564384,0.3598762202655018,-6.137682857703139e-06,0.4922913059399648,0.5998677654770824,-4.533729768655295e-06,0.49430580944833685,0.8398671876206638,-4.953057731935692e-06,0.4937791496233362,1.079867149967128,-4.846017514751472e-06,0.4939135880271314
177,-6.820325246267204e-05,-0.032745798418748036,0.041386849801185864,-0.010813516806938367,0.0028125519532649352,-0.0006889665807407939,0.0,0.0,0.5,0.11999999987214968,-4.410420791776579e-09,0.4999944606807898,0.3598735584790129,-6.2064072948801765e-06,0.49220499068501855,0.5998649246360583,-4.585559323697991e-06,0.49424071351680227,0.8398643346801193,-5.0092546145952816e-06,0.49370856849596506,1.0798642962435885,-4.9011071880230204e-06,0.4938443975122494
178,-7.088140316276646e-05,-0.033109437284490395,0.041847266801650386,-0.010931904707346037,0.002842991761663078,-0.000696373414505838,0.0,0.0,0.5,0.11999999972089899,-6.516431403950299e-09,0.49999181561230505,0.35987080026989454,-6.275772268090089e-06,0.4921178709414042,0.5998619810769005,-4.6376189389165084e-06,0.49417532863851815,0.8398613786056182,-5.0657847814173946e-06,0.49363756877647996,1.0798613393595613,-4.9565044228928964e-06,0.49377482071180634
179,-5.455783041349987e-05,-0.033505997164091805,0.04232507203568383,-0.011054636070114348,0.002874524366603775,-0.0007040427385931844,0.0,0.0,0.5,0.11999999969854962,-6.77231341350028e-09,0.49999149423432365,0.35986789979286593,-6.345989044598094e-06,0.4920296813655459,0.5998588859305366,-4.689854950922606e-06,0.4941097222126386,0.8398582703273955,-5.122661925152425e-06,0.4935661332673074,1.079858230232438,-5.012206010497675e-06,0.49370486165600475
180,-1.957128702806543e-05,-0.03393492154596516,0.04281998522516788,-0.011181630969482034,0.00290712775647633,-0.0007119689893123203,0.0,0.0,0.5,0.11999999982140659,-5.212689229620279e-09,0.4999934530624288,0.35986485520450695,-6.417047784604472e-06,0.49194043431585227,0.5998556372524391,-4.742270091114815e-06,0.4940438908086357,0.8398550078952941,-5.1798853070177304e-06,0.49349426289634063,1.0798549669117434,-5.068212125939592e-06,0.49363452012494
181,2.475798488920974e-05,-0.03438104837607843,0.043324684867170726,-0.011311031939835492,0.002940329112222458,-0.0007200377962148158,0.0,0.0,0.5,0.11999999997701788,-1.8699247453917846e-09,0.4999976514463012,0.3598616643584405,-6.488939155023034e-06,0.4918501415143228,0.5998522327855725,-4.794866974534432e-06,0.4939778311421136,0.8398515890461111,-5.237454215859872e-06,0.49342195855675103,1.0798515471339272,-5.124522938061221e-06,0.49356379590653693
182,4.692954268818139e-05,-0.03479315378242889,0.04381447940739689,-0.01143660789422418,0.002972548571695252,-0.0007278679048091438,0.0,0.0,0.5,0.11999999996322253,2.36548411569482e-09,0.5000029709572447,0.359858371332313,-6.561437890955203e-06,0.49175908588502654,0.5998487195450688,-4.847703078902617e-06,0.49391147102326627,0.8398480609913356,-5.2953539411520245e-06,0.49334923872440267,1.0798480181231,-5.181141898243207e-06,0.4934926846660025
183,4.7348488818850545e-05,-0.035171900993107845,0.044289698000960526,-0.011558449106811274,0.0030038103951800176,-0.0007354653675538898,0.0,0.0,0.5,0.11999999986785707,4.483849887342988e-09,0.5000056315433354,0.35985513843113554,-6.633786959665694e-06,0.4916682182320128,0.5998452705085441,-4.900970685601605e-06,0.4938445689540521,0.8398445974175022,-5.353535427312158e-06,0.4932761650112148,1.0798445536111891,-5.238080506889621e-06,0.49342117195926005
184,2.640499755262195e-05,-0.03551792856193055,0.04475065709608532,-0.011676642038671931,0.0030341377611305927,-0.000742835959217927,0.0,0.0,0.5,0.11999999986548723,4.523877798372276e-09,0.5000056818168552,0.35985196698322663,-6.705997030639172e-06,0.49157752515482117,0.5998418870667492,-4.954666890385382e-06,0.49377712858209566,0.8398411997188169,-5.4119994475496806e-06,0.493202736446071,1.0798411549925941,-5.295338578787921e-06,0.4933492580189359
185,-1.552562488822372e-05,-0.03583185047988004,0.04519766051566605,-0.011791269379207193,0.0030635527806905797,-0.0007499851809708366,0.0,0.0,0.5,0.11999999995816658,2.5228467730441803e-09,0.5000031685987016,0.35984885803524685,-6.778078335117178e-06,0.4914869938034052,0.5998385703222947,-5.008788916578037e-06,0.49370915339479854,0.8398378690009506,-5.47074673978058e-06,0.49312895210218327,1.0798378233731556,-5.3529159372952364e-06,0.49327694306689607
186,-4.7216310210070945e-05,-0.0361644305193376,0.04565514579627642,-0.011908473816383025,0.0030936082870387863,-0.000757287100855791,0.0,0.0,0.5,0.11999999998553731,-1.483384824166957e-09,0.499998136925604,0.35984581237313185,-6.850040670257099e-06,0.49139661187291206,0.5998353211113401,-5.0633341134425746e-06,0.4936406467213815,0.8398346061027813,-5.529778007123076e-06,0.4930548110964543,1.0798345595919012,-5.4108124141857216e-06,0.4932042273144134
187,-6.835937064340834e-05,-0.03651616539042644,0.046123344619507414,-0.012028307878014479,0.0031243164719276075,-0.0007647444988327556,0.0,0.0,0.5,0.11999999986623719,-4.511248886908734e-09,0.49999433404457283,0.3598426630561934,-6.922631335224373e-06,0.49130544078427435,0.5998319615749952,-5.118113327515452e-06,0.49357184613133265,0.8398312324432433,-5.58914139981776e-06,0.49298025295402975,1.079831185021645,-5.469016735424027e-06,0.49313112492124334
188,-7.01680187910812e-05,-0.03690133238186996,0.046609115619240665,-0.01215248456014467,0.003156108271665483,-0.0007724608819089155,0.0,0.0,0.5,0.11999999971961979,-6.531347604826483e-09,0.49999179687812934,0.35983940633846184,-6.995856955493834e-06,0.49121347221615236,0.5998284877311367,-5.173125034141553e-06,0.4935027535395641,0.8398277440254489,-5.6488372789577935e-06,0.4929052772213962,1.079827695664591,-5.527528818173356e-06,0.4930576359914337
189,-5.300371339823542e-05,-0.037319337916488844,0.047112160303467605,-0.012280919060165756,0.0031889603890881816,-0.0007804303694613523,0.0,0.0,0.5,0.11999999970458694,-6.704153609577107e-09,0.4999915798404209,0.35983599136664357,-7.069926382083741e-06,0.4911204438596811,0.5998248454176649,-5.228316663225843e-06,0.493433434972093,0.8398240864699283,-5.708878973695084e-06,0.49282986715764815,1.0798240371274463,-5.5863455440568065e-06,0.4929837644415448
190,-1.720308932771885e-05,-0.037769628430414814,0.04763219873744263,-0.012413530710774199,0.003222850473254826,-0.0007886472945713667,0.0,0.0,0.5,0.11999999983143637,-5.064202221284685e-09,0.49999363955641124,0.3598324163077433,-7.1448297000241035e-06,0.4910263681676867,0.5998210327095996,-5.283690984498078e-06,0.49336388695024685,0.8398202578470757,-5.769265732153309e-06,0.49275402370710897,1.0798202074803676,-5.645467091438318e-06,0.4929095100475484
191,2.7866113792063134e-05,-0.03823697590106501,0.04816190092238453,-0.012548477452457393,0.0032573129525155123,-0.0007969995165880538,0.0,0.0,0.5,0.11999999998224323,-1.6436569749051259e-09,0.4999979356299351,0.35982867901231985,-7.220557519053641e-06,0.4909312569339742,0.5998170473555982,-5.3392506489320695e-06,0.4932941061445043,0.8398162559003859,-5.829996830362468e-06,0.49267774777906215,1.0798162044665827,-5.704893632438473e-06,0.4928348725932774
192,5.0772639164499276e-05,-0.038670310095677805,0.04867673456465445,-0.012679632594118743,0.003290806632717291,-0.0008051168661791607,0.0,0.0,0.5,0.11999999995340879,2.6624480883420885e-09,0.5000033439325947,0.3598248289380166,-7.296885722055157e-06,0.49083539164103984,0.5998129420699758,-5.395052373618803e-06,0.49322402132037585,0.8398121335599348,-5.891057834988201e-06,0.4926010575012196,1.07981208102996,-5.764628548517721e-06,0.4927598478317436
193,5.345845272180618e-05,-0.03907279112446244,0.04917822773304823,-0.01280738545492329,0.0033234309257490604,-0.0008130234349797629,0.0,0.0,0.5,0.11999999984532836,4.851035815460974e-09,0.5000060927147659,0.35982104584820784,-7.373067315754962e-06,0.4907397104837627,0.5998089082848744,-5.451284176491171e-06,0.49315339633455946,0.8398080830252019,-5.952401081173971e-06,0.492524012738817,1.079808029418805,-5.824682995835176e-06,0.4926844217512468
194,3.630113986362933e-05,-0.039445036828437335,0.049666686397752416,-0.012931819479745971,0.0033552081716364487,-0.0008207247845950668,0.0,0.0,0.5,0.11999999982853161,5.107649967541557e-09,0.5000064150122902,0.35981732200901334,-7.44914944654411e-06,0.49064415424808083,0.5998049377376579,-5.507933982367375e-06,0.49308224635301234,0.839804095997986,-6.014029665119943e-06,0.49244660960313524,1.0798040413326215,-5.8850562455226255e-06,0.49260859526720413
195,-1.8999905936872746e-06,-0.03978510115020842,0.05014118603072854,-0.013052711655554439,0.003386083781641156,-0.0008282080229764022,0.0,0.0,0.5,0.11999999992093364,3.4683666745580273e-09,0.500004356135402,0.35981365822545136,-7.525141995110978e-06,0.490548710524229,0.599801031269845,-5.564999113900348e-06,0.49301057473838233,0.8398001733214518,-6.075944297552153e-06,0.4923688472015348,1.0798001176146483,-5.945748127442612e-06,0.4925323685933084
196,-3.0130332230143157e-05,-0.04014335939693857,0.05062588791802773,-0.013176067917302026,0.0034175631994958493,-0.0008358339558262236,0.0,0.0,0.5,0.1199999999997834,-1.8153325441895478e-10,0.49999977200120105,0.3598100644023507,-7.601017442063086e-06,0.4904534138755149,0.5997971994199202,-5.622486284295615e-06,0.49293837305914723,0.8397963255748458,-6.1381433122657305e-06,0.49229072762671183,1.07979626884669,-6.006759027210531e-06,0.49245574124524943
197,-4.812757092222377e-05,-0.04052023361822537,0.05112098590533944,-0.013301929843753188,0.0034496555795788665,-0.0008436045929135855,0.0,0.0,0.5,0.11999999994552976,-2.8787812338707348e-09,0.49999638436127897,0.35980635687791773,-7.677509229348431e-06,0.49035734312699725,0.5997932466819308,-5.6802116471153e-06,0.4928658722193674,0.8397923564772664,-6.200673190547505e-06,0.4922121924999455,1.0797922986986908,-6.068078081572298e-06,0.49237872686684786
198,-5.577558018700646e-05,-0.0409159081847963,0.05162655934826997,-0.013430310178514327,0.0034823627771947896,-0.0008515201843526327,0.0,0.0,0.5,0.11999999986102423,-4.598314645582862e-09,0.49999422469332216,0.35980253191430034,-7.754622709014587e-06,0.49026049155671814,0.5997891690916975,-5.738174038033285e-06,0.4927930736813949,0.8397882620508268,-6.263534195195508e-06,0.492133241491171,1.0797882031919386,-6.129705231180364e-06,0.4923013255326371
199,-4.434440837193052e-05,-0.041344553202105776,0.0521493845993141,-0.013562878081111597,0.0035161002483821715,-0.0008596798752682804,0.0,0.0,0.5,0.1199999998133451,-5.3290382683209015e-09,0.49999330693250255,0.3597985865269313,-7.832359727239103e-06,0.4901628568459464,0.5997849634909698,-5.796373181505571e-06,0.4927199777913055,0.8397840391271,-6.3267263625497486e-06,0.49205387455475585,1.079783979157408,-6.191640469756033e-06,0.49222353725051865
200,-2.2995820174491717e-05,-0.041791287072697,0.052682322379518295,-0.01369785747560881,0.0035504225372034056,-0.0008679768655278847,0.0,0.0,0.5,0.11999999988201443,-4.236855061889557e-09,0.4999946786726838,0.359794464323979,-7.91092475592513e-06,0.4900641821858156,0.5997805698884189,-5.85475823336286e-06,0.4926466484074171,0.8397796274815357,-6.3902624731773435e-06,0.4919740756387871,1.0797795663558472,-6.2538808139759794e-06,0.4921453657674171
201,7.847285264191678e-06,-0.042255418482412495,0.05322503167639991,-0.01383515633591488,0.0035853051879967774,-0.0008764050923683782,0.0,0.0,0.5,0.11999999996827153,-2.197119337228636e-09,0.499997240502454,0.35979021842625186,-7.990100959495912e-06,0.48996473991349615,0.5997760448518872,-5.913383584368533e-06,0.49257301721702346,0.8397750839081464,-6.4541287702034655e-06,0.49189386202137614,1.0797750215956394,-6.3164294806322885e-06,0.49206680704316824
202,1.6783792723306792e-05,-0.04268597361170696,0.05375312482735266,-0.013968758376095512,0.0036192489865327212,-0.000884606522938466,0.0,0.0,0.5,0.11999999999630521,7.497633078194738e-10,0.5000009416739332,0.35978584897891785,-8.069877400685162e-06,0.4898645437657656,0.5997713885675022,-5.972252170507599e-06,0.49249908053264124,0.8397704085970961,-6.51832447701779e-06,0.4918132346779202,1.0797703450672582,-6.379286653728126e-06,0.49198786084668084
203,4.209596999632411e-06,-0.0430836007700589,0.054266923978564204,-0.014098752262890568,0.0036522778086132642,-0.0008925871196563068,0.0,0.0,0.5,0.11999999998309827,1.603595578071376e-09,0.5000020140544883,0.3597815539579293,-8.149517464238676e-06,0.48976451890311185,0.5997668116750265,-6.031547405060669e-06,0.49242460799422894,0.8397658130110156,-6.582803447832608e-06,0.4917322515657537,1.0797657482852998,-6.442463110182006e-06,0.4919085136425521
204,-2.949414914835315e-05,-0.04344892384330086,0.054766738584582274,-0.014225222775860283,0.003684414415225183,-0.0009003525572841539,0.0,0.0,0.5,0.11999999999893673,4.0220296125296487e-10,0.5000005051514799,0.35977733436474146,-8.22903161887652e-06,0.4896646521772225,0.5997623152145604,-6.0912664309358986e-06,0.4923496031901845,0.8397612981914311,-6.6475664438773966e-06,0.4916509117288018,1.0797612322913364,-6.505958667137996e-06,0.4918287656604436
205,-5.293553809565055e-05,-0.04383288644138804,0.05527691018665252,-0.014354150817065597,0.0037171445766797586,-0.0009082569847177488,0.0,0.0,0.5,0.1199999999478057,-2.8179975723220673e-09,0.49999646070322457,0.3597731909409133,-8.308429889197308e-06,0.4895649309975889,0.5997578999614721,-6.151406522139236e-06,0.49227406954425,0.8397568649148837,-6.712614189863294e-06,0.49156921425685013,1.0797567978619425,-6.569773150632884e-06,0.49174861711883683
206,-5.8965277916634125e-05,-0.04423843916264981,0.05577955370638364,-0.014464390959965654,0.0037411027399023725,-0.0009140032986775777,0.0,0.0,0.5,0.11999999983186975,-5.057688460336824e-09,0.499993647737445,0.3597689210784168,-8.388445567535724e-06,0.48946443437718223,0.5997533504199193,-6.2117857452104214e-06,0.49219823555786785,0.8397522968518866,-6.77799234993013e-06,0.4914871017974965,1.0797522286151362,-6.633895909651746e-06,0.4916680813950074
207,-4.7977106353818796e-05,-0.04466464720358285,0.05627356251697363,-0.014555098498753352,0.0037559386010321055,-0.0009175057798055282,0.0,0.0,0.5,0.11999999979138576,-5.633795676301489e-09,0.4999929241688969,0.35976456708869153,-8.467593946239964e-06,0.48936502705182755,0.5997487464922965,-6.273534533289904e-06,0.49212068145041665,0.8397476792412247,-6.843406025838242e-06,0.49140494473162144,1.0797476101368175,-6.6983963583986745e-06,0.49158707130739365
208,-3.148475603674477e-05,-0.04509590766211548,0.056758354172349396,-0.014632096536166294,0.003764563447920627,-0.0009194814910347925,0.0,0.0,0.5,0.11999999986189185,-4.583938615072391e-09,0.4999942427490646,0.35976013357526365,-8.545809299774772e-06,0.4892667915702638,0.5997440951188331,-6.336695219030238e-06,0.4920413540536916,0.8397430193201345,-6.908844209319912e-06,0.4913227568851578,1.0797429496833948,-6.76327708628141e-06,0.4915055836037605
209,-9.71567666530828e-06,-0.04553196031960261,0.0572340470248094,-0.014695624759600864,0.0037670885544519206,-0.0009199577990804741,0.0,0.0,0.5,0.1199999999405226,-3.0081886962950077e-09,0.49999622183047376,0.3597556636247029,-8.623411049372796e-06,0.48916932675169494,0.5997394302951475,-6.400917167896745e-06,0.4919606937512291,0.8397383494787612,-6.97439889765432e-06,0.4912404227130858,1.0797382795399653,-6.828516410399292e-06,0.49142364551704043
210,1.7041500865081376e-05,-0.04597246129918701,0.05770075432694708,-0.014745951888190246,0.003763639840499708,-0.000918965676330429,0.0,0.0,0.5,0.11999999999433632,-9.282774397773916e-10,0.49999883411916973,0.3597511576976522,-8.700414662469597e-06,0.48907261316960593,0.5997347524997194,-6.466186967735016e-06,0.49187871738816197,0.8397336701565761,-7.0400736026444975e-06,0.4911579378046901,1.079733600143343,-6.894113503361754e-06,0.4913412580863712
211,2.1982307303723173e-05,-0.04637956342653264,0.05815299408982034,-0.0147926666618282,0.0037592822290298355,-0.0009177551606976369,0.0,0.0,0.5,0.11999999998257523,1.6282181197909383e-09,0.5000020449794556,0.3597466165076165,-8.776837162020586e-06,0.4889766294438255,0.5997300623519428,-6.532489442085245e-06,0.49179544402555436,0.8397289819082088,-7.105872298774441e-06,0.4910752971681896,1.0797289120438154,-6.96006742881578e-06,0.49125842248779944
212,5.499460128397463e-06,-0.04675390919177409,0.058591084225266814,-0.014835855420598723,0.0037540386072072145,-0.0009163319017436484,0.0,0.0,0.5,0.11999999997100669,2.100283968469192e-09,0.5000026378760402,0.35974216311153007,-8.853131687014344e-06,0.4888808064491763,0.5997254674930481,-6.599215211476962e-06,0.49171163902062187,0.8397243894702925,-7.171955312444699e-06,0.49099229943976985,1.0797243197877968,-7.026340373616822e-06,0.4911751862131707
213,-3.202905241999233e-05,-0.047096116664252216,0.05901532991819795,-0.014875600581863602,0.003747930734092687,-0.0009147012576158802,0.0,0.0,0.5,0.11999999999818535,5.254420195382735e-10,0.5000006599350062,0.359737798097549,-8.929308502872513e-06,0.4887851312926823,0.5997209684215463,-6.666361520677047e-06,0.4916273058338338,0.8397198933265017,-7.238323366387409e-06,0.49090894371170957,1.079719823857976,-7.092932165006214e-06,0.4910915494794657
214,-6.348816639359996e-05,-0.04744454735559972,0.05943148271201404,-0.01490240149616639,0.0037359215918270584,-0.0009116199632916161,0.0,0.0,0.5,0.1199999999384484,-3.060193108367636e-09,0.4999961565149285,0.3597335218117226,-9.005377427543376e-06,0.48868959164337544,0.5997165653936041,-6.73392574703211e-06,0.49154244775913547,0.8397154937185061,-7.304977146348831e-06,0.49082522912272813,1.0797154244950629,-7.159842639242027e-06,0.49100751249232566
215,-7.738479704578674e-05,-0.04781485862890103,0.0598403482961111,-0.01491066337917284,0.003715200428485834,-0.0009063954638283406,0.0,0.0,0.5,0.11999999975815516,-6.065931848862481e-09,0.4999923814224527,0.3597292090827204,-9.080894517840375e-06,0.48859474507686457,0.5997121490536913,-6.80251388534381e-06,0.49145630369033694,0.8397110841542278,-7.371757198368385e-06,0.49074135594090773,1.0797110153942944,-7.227109406751172e-06,0.49092302801453713
216,-7.402273798596519e-05,-0.04820667516627808,0.060242009907375015,-0.014900635087784967,0.0036858854256654303,-0.0008990567830148985,0.0,0.0,0.5,0.11999999964069558,-7.3936755702545925e-09,0.4999907138273072,0.35972481220811126,-9.155556496784477e-06,0.48850097249738383,0.5997076815467078,-6.872464398772058e-06,0.49136844853068373,0.8397066283371277,-7.43857467599204e-06,0.4906574357539562,1.0797065603607479,-7.29475341223503e-06,0.49083806974032135
217,-5.369501759063208e-05,-0.04861963588136403,0.060636550455241085,-0.014872559311794301,0.0036480917768938153,-0.0008896322032434156,0.0,0.0,0.5,0.11999999967123809,-7.072450021582556e-09,0.4999911172742654,0.3597203309090139,-9.229378682408928e-06,0.48840825466607835,0.5997031623555314,-6.9437630324226636e-06,0.49127890018378373,0.8397021256018544,-7.505433304680932e-06,0.4905734638828486,1.079702058719218,-7.362773778631063e-06,0.4907526387712496
